; generated by PrusaSlicer 2.6.0+win64 on 2023-08-15 at 05:25:25 UTC


;
;

;
;

;
;
; 

; external perimeters extrusion width = 0.45mm
; perimeters extrusion width = 0.45mm
; infill extrusion width = 0.45mm
; solid infill extrusion width = 0.45mm
; top infill extrusion width = 0.40mm
; support material extrusion width = 0.37mm
; first layer extrusion width = 0.50mm

M73 P0 R37
M201 X2500 Y2500 Z200 E2500 ; sets maximum accelerations, mm/sec^2
M203 X200 Y200 Z40 E100 ; sets maximum feedrates, mm / sec
M204 P2000 R1200 T2000 ; sets acceleration (P, T) and retract acceleration (R), mm/sec^2
M205 X8.00 Y8.00 Z2.00 E10.00 ; sets the jerk limits, mm/sec
M205 S0 T0 ; sets the minimum extruding and travel feed rate, mm/sec
;TYPE:Custom
M17 ; enable steppers
M862.3 P "MK4" ; printer model check
M862.1 P0.4 ; nozzle diameter check
M555 X85.6025 Y59.7683 W74 H14.0339

G90 ; use absolute coordinates
M83 ; extruder relative mode

M140 S60 ; set bed temp

M104 S170 ; set extruder temp for bed leveling
M109 R170 ; wait for temp


M84 E ; turn off E motor

G28 ; home all without mesh bed level

G1 X42 Y-4 Z5 F4800

M302 S160 ; lower cold extrusion limit to 160C


G1 E-2 F2400 ; retraction


M84 E ; turn off E motor

G29 P9 X10 Y-4 W32 H4

M106 S100

G0 Z40 F10000

M190 S60 ; wait for bed temp

M107

;
; MBL
;
M84 E ; turn off E motor
G29 P1 ; invalidate mbl & probe print area
G29 P1 X0 Y0 W50 H20 C ; probe near purge place
G29 P3.2 ; interpolate mbl probes
G29 P3.13 ; extrapolate mbl outside probe area
G29 A ; activate mbl

; prepare for purge
M104 S215
G0 X0 Y-4 Z15 F4800 ; move away and ready for the purge
M109 S215

G92 E0
M569 S0 E ; set spreadcycle mode for extruder

;
; Extrude purge line
;
G92 E0 ; reset extruder position
G1 E2 F2400 ; deretraction after the initial one before nozzle cleaning
G0 E7 X15 Z0.2 F500 ; purge
G0 X25 E4 F500 ; purge
G0 X35 E4 F650 ; purge
G0 X45 E4 F800 ; purge
G0 X48 Z0.05 F8000 ; wipe, move close to the bed
G0 X51 Z0.2 F8000 ; wipe, move quickly away from the bed

G92 E0
M221 S100 ; set flow to 100%
G21 ; set units to millimeters
G90 ; use absolute coordinates
M83 ; use relative distances for extrusion
M900 K0.05 ; Filament gcode

M142 S36 ; set heatbreak target temp
M107
;LAYER_CHANGE
;Z:0.2
;HEIGHT:0.2
;BEFORE_LAYER_CHANGE
G92 E0.0
;0.2


G1 E-.8 F2100
G1 Z.2 F720
;AFTER_LAYER_CHANGE
;0.2
; printing object battery arm.stl id:0 copy 0
M73 P0 R36
G1 Z.4
G1 X93.228 Y66.472 F12000
G1 Z.2 F720
G1 E.8 F1500
M204 P600
;TYPE:Perimeter
;WIDTH:0.499999
G1 F1200
G1 X93.195 Y66.581 E.00433
G1 X93.195 Y72.895 E.23997
G1 X86.51 Y72.895 E.25407
G1 X86.51 Y69.709 E.12109
G1 X90.824 Y69.709 E.16396
G1 X90.942 Y69.699 E.0045
G1 X91.249 Y69.562 E.01278
G1 X91.434 Y69.337 E.01107
G1 X91.51 Y69.024 E.01224
G1 X91.51 Y64.675 E.16529
G1 X153.695 Y64.675 E2.36342
G1 X153.695 Y68.99 E.164
G1 X153.771 Y69.303 E.01224
G1 X153.956 Y69.528 E.01107
G1 X154.169 Y69.642 E.00918
G1 X154.381 Y69.675 E.00815
G1 X158.695 Y69.675 E.16396
G1 X158.695 Y72.861 E.12109
G1 X152.01 Y72.861 E.25407
G1 X152.01 Y66.581 E.23868
G1 X151.895 Y66.201 E.01509
G1 X151.667 Y65.987 E.01188
G1 X151.324 Y65.895 E.0135
G1 X93.881 Y65.895 E2.18319
G1 X93.538 Y65.987 E.0135
G1 X93.31 Y66.201 E.01188
G1 X93.246 Y66.415 E.00849
M204 P1000
G1 X93.652 Y66.581 F12000
M204 P600
;TYPE:External perimeter
G1 F1200
G1 X93.652 Y73.352 E.25734
G1 X86.052 Y73.352 E.28885
G1 X86.052 Y69.252 E.15583
G1 X90.824 Y69.252 E.18137
G1 X90.895 Y69.241 E.00273
G1 X91.027 Y69.128 E.0066
G1 X91.052 Y69.024 E.00407
G1 X91.052 Y64.218 E.18266
G1 X154.152 Y64.218 E2.3982
G1 X154.156 Y69.029 E.18285
G1 X154.239 Y69.169 E.00619
G1 X154.381 Y69.218 E.00571
G1 X159.152 Y69.218 E.18133
G1 X159.152 Y73.318 E.15583
G1 X151.552 Y73.318 E.28885
G1 X151.552 Y66.581 E.25605
G1 X151.514 Y66.454 E.00504
G1 X151.438 Y66.383 E.00395
M73 P1 R36
G1 X151.324 Y66.352 E.00449
G1 X93.881 Y66.352 E2.18319
G1 X93.842 Y66.356 E.00149
G1 X93.691 Y66.454 E.00684
G1 X93.67 Y66.523 E.00274
M204 P1000
G1 X93.269 Y66.695 F12000
G1 E-.64 F2100
;WIPE_START
G1 F9600
G1 X93.668 Y67.293 E-.16
;WIPE_END
G1 Z.4 F720
G1 X158.49 Y70.809 F12000
G1 Z.2 F720
G1 E.8 F1500
M204 P600
;TYPE:Solid infill
;WIDTH:0.502073
G1 F1200
G1 X157.767 Y70.087 E.03901
G1 X157.118 Y70.087 E.02478
G1 X158.284 Y71.253 E.06296
G1 X158.284 Y71.902 E.02478
G1 X156.468 Y70.087 E.09802
G1 X155.819 Y70.087 E.02478
G1 X158.182 Y72.45 E.12759
G1 X157.533 Y72.45 E.02478
G1 X154.964 Y69.881 E.13871
M204 P1000
G1 E-.64 F2100
;WIPE_START
G1 F9600
G1 X155.508 Y70.425 E-.16
;WIPE_END
G1 Z.4 F720
G1 X153.49 Y65.809 F12000
G1 Z.2 F720
G1 E.8 F1500
M204 P600
G1 F1200
G1 X152.767 Y65.087 E.03901
G1 X152.118 Y65.087 E.02478
G1 X153.284 Y66.253 E.06296
G1 X153.284 Y66.902 E.02478
G1 X151.468 Y65.087 E.09802
G1 X150.819 Y65.087 E.02478
G1 X151.216 Y65.484 E.02144
G1 X151.348 Y65.484 E.00504
G1 X151.873 Y65.624 E.02074
G1 X152.246 Y65.975 E.01955
G1 X152.421 Y66.554 E.02309
G1 X152.421 Y66.689 E.00515
G1 X153.284 Y67.552 E.0466
G1 X153.284 Y68.201 E.02478
G1 X152.421 Y67.338 E.0466
G1 X152.421 Y67.987 E.02478
G1 X153.284 Y68.85 E.0466
G1 X153.3 Y69.185 E.0128
G1 X153.406 Y69.498 E.01262
G1 X153.696 Y69.851 E.01744
G1 X154.04 Y70.035 E.01489
G1 X154.367 Y70.087 E.01264
G1 X154.52 Y70.087 E.00584
G1 X156.883 Y72.45 E.12759
G1 X156.234 Y72.45 E.02478
G1 X152.421 Y68.637 E.20587
G1 X152.421 Y69.286 E.02478
G1 X155.585 Y72.45 E.17083
G1 X154.935 Y72.45 E.02482
G1 X152.421 Y69.935 E.13577
G1 X152.421 Y70.585 E.02482
G1 X154.286 Y72.45 E.1007
G1 X153.637 Y72.45 E.02478
G1 X152.421 Y71.234 E.06566
G1 X152.421 Y71.883 E.02478
G1 X153.193 Y72.656 E.04171
M204 P1000
G1 E-.64 F2100
;WIPE_START
G1 F9600
G1 X152.649 Y72.111 E-.16
;WIPE_END
G1 Z.4 F720
G1 X150.772 Y65.689 F12000
G1 Z.2 F720
G1 E.8 F1500
M204 P600
G1 F1200
G1 X150.17 Y65.087 E.0325
G1 X149.52 Y65.087 E.02482
G1 X149.917 Y65.484 E.02144
G1 X149.268 Y65.484 E.02478
G1 X148.871 Y65.087 E.02144
G1 X148.222 Y65.087 E.02478
G1 X148.619 Y65.484 E.02144
G1 X147.969 Y65.484 E.02482
G1 X147.572 Y65.087 E.02144
G1 X146.923 Y65.087 E.02478
G1 X147.32 Y65.484 E.02144
G1 X146.671 Y65.484 E.02478
G1 X146.274 Y65.087 E.02144
G1 X145.624 Y65.087 E.02482
G1 X146.021 Y65.484 E.02144
G1 X145.372 Y65.484 E.02478
G1 X144.975 Y65.087 E.02144
G1 X144.326 Y65.087 E.02478
G1 X144.723 Y65.484 E.02144
G1 X144.073 Y65.484 E.02482
G1 X143.676 Y65.087 E.02144
G1 X143.027 Y65.087 E.02478
G1 X143.424 Y65.484 E.02144
G1 X142.775 Y65.484 E.02478
G1 X142.378 Y65.087 E.02144
G1 X141.728 Y65.087 E.02482
G1 X142.125 Y65.484 E.02144
G1 X141.476 Y65.484 E.02478
G1 X141.079 Y65.087 E.02144
G1 X140.43 Y65.087 E.02478
G1 X140.827 Y65.484 E.02144
G1 X140.177 Y65.484 E.02482
G1 X139.78 Y65.087 E.02144
G1 X139.131 Y65.087 E.02478
G1 X139.528 Y65.484 E.02144
G1 X138.879 Y65.484 E.02478
G1 X138.482 Y65.087 E.02144
G1 X137.832 Y65.087 E.02482
G1 X138.229 Y65.484 E.02144
G1 X137.58 Y65.484 E.02478
G1 X137.183 Y65.087 E.02144
G1 X136.534 Y65.087 E.02478
G1 X136.931 Y65.484 E.02144
G1 X136.281 Y65.484 E.02482
G1 X135.884 Y65.087 E.02144
G1 X135.235 Y65.087 E.02478
G1 X135.632 Y65.484 E.02144
G1 X134.983 Y65.484 E.02478
G1 X134.585 Y65.087 E.02146
G1 X133.936 Y65.087 E.02478
G1 X134.333 Y65.484 E.02144
G1 X133.684 Y65.484 E.02478
G1 X133.287 Y65.087 E.02144
G1 X132.637 Y65.087 E.02482
G1 X133.035 Y65.484 E.02146
G1 X132.385 Y65.484 E.02482
G1 X131.988 Y65.087 E.02144
G1 X131.339 Y65.087 E.02478
G1 X131.736 Y65.484 E.02144
G1 X131.086 Y65.484 E.02482
G1 X130.689 Y65.087 E.02144
G1 X130.04 Y65.087 E.02478
G1 X130.437 Y65.484 E.02144
G1 X129.788 Y65.484 E.02478
G1 X129.391 Y65.087 E.02144
G1 X128.741 Y65.087 E.02482
G1 X129.138 Y65.484 E.02144
G1 X128.489 Y65.484 E.02478
G1 X128.092 Y65.087 E.02144
G1 X127.443 Y65.087 E.02478
G1 X127.84 Y65.484 E.02144
G1 X127.19 Y65.484 E.02482
G1 X126.793 Y65.087 E.02144
G1 X126.144 Y65.087 E.02478
G1 X126.541 Y65.484 E.02144
G1 X125.892 Y65.484 E.02478
G1 X125.495 Y65.087 E.02144
G1 X124.845 Y65.087 E.02482
G1 X125.242 Y65.484 E.02144
G1 X124.593 Y65.484 E.02478
G1 X124.196 Y65.087 E.02144
G1 X123.547 Y65.087 E.02478
G1 X123.944 Y65.484 E.02144
G1 X123.294 Y65.484 E.02482
G1 X122.897 Y65.087 E.02144
G1 X122.248 Y65.087 E.02478
G1 X122.645 Y65.484 E.02144
G1 X121.996 Y65.484 E.02478
G1 X121.599 Y65.087 E.02144
G1 X120.949 Y65.087 E.02482
G1 X121.346 Y65.484 E.02144
G1 X120.697 Y65.484 E.02478
G1 X120.3 Y65.087 E.02144
G1 X119.651 Y65.087 E.02478
G1 X120.048 Y65.484 E.02144
G1 X119.398 Y65.484 E.02482
G1 X119.001 Y65.087 E.02144
G1 X118.352 Y65.087 E.02478
G1 X118.749 Y65.484 E.02144
G1 X118.1 Y65.484 E.02478
G1 X117.703 Y65.087 E.02144
G1 X117.053 Y65.087 E.02482
G1 X117.45 Y65.484 E.02144
G1 X116.801 Y65.484 E.02478
G1 X116.404 Y65.087 E.02144
G1 X115.755 Y65.087 E.02478
G1 X116.152 Y65.484 E.02144
G1 X115.502 Y65.484 E.02482
G1 X115.105 Y65.087 E.02144
G1 X114.456 Y65.087 E.02478
G1 X114.853 Y65.484 E.02144
G1 X114.204 Y65.484 E.02478
G1 X113.807 Y65.087 E.02144
G1 X113.157 Y65.087 E.02482
G1 X113.554 Y65.484 E.02144
G1 X112.905 Y65.484 E.02478
G1 X112.508 Y65.087 E.02144
G1 X111.859 Y65.087 E.02478
G1 X112.256 Y65.484 E.02144
G1 X111.606 Y65.484 E.02482
G1 X111.209 Y65.087 E.02144
G1 X110.56 Y65.087 E.02478
G1 X110.957 Y65.484 E.02144
G1 X110.308 Y65.484 E.02478
G1 X109.911 Y65.087 E.02144
G1 X109.261 Y65.087 E.02482
G1 X109.658 Y65.484 E.02144
G1 X109.009 Y65.484 E.02478
G1 X108.612 Y65.087 E.02144
G1 X107.963 Y65.087 E.02478
G1 X108.36 Y65.484 E.02144
G1 X107.71 Y65.484 E.02482
G1 X107.313 Y65.087 E.02144
G1 X106.664 Y65.087 E.02478
G1 X107.061 Y65.484 E.02144
G1 X106.412 Y65.484 E.02478
G1 X106.015 Y65.087 E.02144
G1 X105.365 Y65.087 E.02482
G1 X105.762 Y65.484 E.02144
G1 X105.113 Y65.484 E.02478
G1 X104.716 Y65.087 E.02144
G1 X104.066 Y65.087 E.02482
G1 X104.464 Y65.484 E.02146
G1 X103.814 Y65.484 E.02482
G1 X103.417 Y65.087 E.02144
G1 X102.768 Y65.087 E.02478
G1 X103.165 Y65.484 E.02144
G1 X102.516 Y65.484 E.02478
G1 X102.118 Y65.087 E.02146
G1 X101.469 Y65.087 E.02478
G1 X101.866 Y65.484 E.02144
G1 X101.217 Y65.484 E.02478
G1 X100.82 Y65.087 E.02144
G1 X100.17 Y65.087 E.02482
G1 X100.567 Y65.484 E.02144
G1 X99.918 Y65.484 E.02478
G1 X99.521 Y65.087 E.02144
G1 X98.872 Y65.087 E.02478
G1 X99.269 Y65.484 E.02144
G1 X98.619 Y65.484 E.02482
G1 X98.222 Y65.087 E.02144
G1 X97.573 Y65.087 E.02478
G1 X97.97 Y65.484 E.02144
G1 X97.321 Y65.484 E.02478
G1 X96.924 Y65.087 E.02144
G1 X96.274 Y65.087 E.02482
G1 X96.671 Y65.484 E.02144
G1 X96.022 Y65.484 E.02478
G1 X95.625 Y65.087 E.02144
G1 X94.976 Y65.087 E.02478
G1 X95.373 Y65.484 E.02144
G1 X94.723 Y65.484 E.02482
G1 X94.326 Y65.087 E.02144
G1 X93.677 Y65.087 E.02478
G1 X94.074 Y65.484 E.02144
G1 X93.873 Y65.484 E.00767
G1 X93.683 Y65.5 E.00728
G1 X93.506 Y65.565 E.0072
G1 X93.028 Y65.087 E.02581
G1 X92.378 Y65.087 E.02482
G1 X93.118 Y65.826 E.03993
G1 X92.959 Y65.975 E.00832
G1 X92.88 Y66.237 E.01045
G1 X91.921 Y65.279 E.05175
G1 X91.921 Y65.928 E.02478
G1 X92.784 Y66.791 E.0466
G1 X92.784 Y67.44 E.02478
G1 X91.921 Y66.577 E.0466
G1 X91.921 Y67.227 E.02482
G1 X92.784 Y68.09 E.0466
G1 X92.784 Y68.739 E.02478
G1 X91.921 Y67.876 E.0466
G1 X91.921 Y68.525 E.02478
G1 X92.784 Y69.388 E.0466
G1 X92.784 Y70.038 E.02482
G1 X91.909 Y69.163 E.04724
G1 X91.905 Y69.219 E.00214
G1 X91.799 Y69.532 E.01262
G1 X91.722 Y69.626 E.00464
G1 X92.784 Y70.687 E.05731
G1 X92.784 Y71.336 E.02478
G1 X91.394 Y69.947 E.07502
G1 X91.172 Y70.065 E.0096
G1 X91.012 Y70.105 E.0063
G1 X90.912 Y70.114 E.00383
G1 X92.784 Y71.986 E.10107
G1 X92.784 Y72.484 E.01901
G1 X92.633 Y72.484 E.00576
G1 X90.27 Y70.121 E.12759
G1 X89.62 Y70.121 E.02482
G1 X91.983 Y72.484 E.12759
G1 X91.334 Y72.484 E.02478
G1 X88.971 Y70.121 E.12759
G1 X88.322 Y70.121 E.02478
G1 X90.685 Y72.484 E.12759
G1 X90.035 Y72.484 E.02482
G1 X87.672 Y70.121 E.12759
G1 X87.023 Y70.121 E.02478
G1 X89.386 Y72.484 E.12759
G1 X88.737 Y72.484 E.02478
G1 X86.921 Y70.668 E.09805
G1 X86.921 Y71.317 E.02478
G1 X88.087 Y72.484 E.06298
G1 X87.438 Y72.484 E.02478
G1 X86.715 Y71.761 E.03904
M204 P1000
; stop printing object battery arm.stl id:0 copy 0
M106 S84.15
;LAYER_CHANGE
;Z:0.35
;HEIGHT:0.15
;BEFORE_LAYER_CHANGE
G92 E0.0
;0.35


G1 E-.64 F2100
;WIPE_START
G1 F9600
G1 X87.259 Y72.305 E-.16
;WIPE_END
G1 Z.4 F720
;AFTER_LAYER_CHANGE
;0.35
; printing object battery arm.stl id:0 copy 0
G1 X93.492 Y66.684 F12000
G1 Z.35 F720
G1 E.8 F1500
M204 P900
;TYPE:Perimeter
;WIDTH:0.449999
G1 F2700
G1 X93.46 Y66.786 E.00279
G1 X93.46 Y73.159 E.16605
G1 X86.245 Y73.159 E.18799
G1 X86.245 Y69.445 E.09677
G1 X90.619 Y69.445 E.11397
G1 X90.727 Y69.436 E.00282
G1 X91.025 Y69.295 E.00859
G1 X91.182 Y69.093 E.00667
G1 X91.245 Y68.818 E.00735
G1 X91.245 Y64.411 E.11483
G1 X153.96 Y64.411 E1.63408
G1 X153.96 Y68.784 E.11394
G1 X154.023 Y69.059 E.00735
G1 X154.18 Y69.261 E.00667
G1 X154.366 Y69.371 E.00563
G1 X154.586 Y69.411 E.00583
G1 X158.96 Y69.411 E.11397
G1 X158.96 Y73.125 E.09677
G1 X151.745 Y73.125 E.18799
G1 X151.745 Y66.786 E.16517
G1 X151.632 Y66.426 E.00983
G1 X151.424 Y66.239 E.00729
G1 X151.119 Y66.159 E.00822
G1 X94.086 Y66.159 E1.48604
G1 X93.781 Y66.239 E.00822
G1 X93.573 Y66.426 E.00729
G1 X93.51 Y66.627 E.00549
M204 P1000
G1 X93.877 Y66.786 F12000
M204 P700
;TYPE:External perimeter
M73 P2 R36
G1 F1500
G1 X93.877 Y73.577 E.17694
G1 X85.827 Y73.577 E.20975
G1 X85.827 Y69.027 E.11855
G1 X90.619 Y69.027 E.12486
G1 X90.754 Y68.977 E.00375
G1 X90.827 Y68.818 E.00456
G1 X90.827 Y63.993 E.12572
G1 X154.377 Y63.993 E1.65584
G1 X154.377 Y68.784 E.12483
G1 X154.451 Y68.943 E.00457
G1 X154.586 Y68.993 E.00375
G1 X159.377 Y68.993 E.12483
G1 X159.377 Y73.543 E.11855
G1 X151.327 Y73.543 E.20975
G1 X151.327 Y66.786 E.17606
G1 X151.29 Y66.666 E.00327
G1 X151.119 Y66.577 E.00502
G1 X94.086 Y66.577 E1.48604
G1 X94.05 Y66.58 E.00094
G1 X93.915 Y66.666 E.00417
G1 X93.896 Y66.729 E.00171
M204 P1000
G1 X93.494 Y66.901 F12000
G1 E-.64 F2100
;WIPE_START
G1 F9600
G1 X93.894 Y67.499 E-.16
;WIPE_END
G1 Z.55 F720
G1 X150.904 Y65.783 F12000
G1 Z.35 F720
G1 E.8 F1500
M204 P1500
;TYPE:Solid infill
G1 F5400
G1 X94.088 Y65.783 E1.48038
G1 X93.561 Y65.938 E.01431
G1 X93.239 Y66.267 E.01199
G1 X93.084 Y66.793 E.01429
G1 X93.084 Y67.782 E.02577
G1 X92.936 Y67.782 E.00386
G1 X91.819 Y68.898 E.04114
G1 X91.531 Y69.216 E.01118
G1 X91.621 Y68.817 E.01066
G1 X91.621 Y64.787 E.105
G1 X153.584 Y64.787 E1.61449
G1 X153.584 Y68.783 E.10412
G1 X153.669 Y69.178 E.01053
G1 X153.908 Y69.517 E.01081
G1 X154.27 Y69.732 E.01097
G1 X154.745 Y69.787 E.01246
G1 X152.121 Y72.41 E.09667
G1 X152.121 Y66.793 E.14635
G1 X152.112 Y66.73 E.00166
G1 X151.937 Y66.21 E.0143
G1 X151.558 Y65.892 E.01289
G1 X151.113 Y65.783 E.01194
M204 P1000
G1 E-.64 F2100
;WIPE_START
G1 F9600
G1 X151.558 Y65.892 E-.09521
G1 X151.797 Y66.092 E-.06479
;WIPE_END
G1 Z.55 F720
G1 X155.335 Y69.787 F12000
G1 Z.35 F720
G1 E.8 F1500
M204 P1500
G1 F5400
G1 X152.373 Y72.749 E.10914
G1 X152.184 Y72.749 E.00492
;WIDTH:0.411095
G1 X151.995 Y72.749 E.00447
;WIDTH:0.37219
G1 X152.022 Y72.849 E.0022
M204 P1000
G1 X152.964 Y72.749 F12000
M204 P1500
;WIDTH:0.449999
G1 F5400
G1 X155.926 Y69.787 E.10914
G1 X156.517 Y69.787 E.0154
G1 X153.555 Y72.749 E.10914
G1 X154.146 Y72.749 E.0154
G1 X157.108 Y69.787 E.10914
G1 X157.699 Y69.787 E.0154
G1 X154.737 Y72.749 E.10914
G1 X155.327 Y72.749 E.01537
G1 X158.29 Y69.787 E.10916
G1 X158.495 Y69.759 E.00539
;WIDTH:0.411095
G1 X158.7 Y69.731 E.00489
;WIDTH:0.37219
G1 X158.659 Y69.742 E.0009
G1 X158.64 Y69.671 E.00156
G1 X158.711 Y69.69 E.00156
;WIDTH:0.449999
G1 X158.584 Y70.084 E.01079
G1 X155.918 Y72.749 E.09822
G1 X156.509 Y72.749 E.0154
G1 X158.584 Y70.675 E.07644
G1 X158.584 Y71.266 E.0154
G1 X157.1 Y72.749 E.05466
G1 X157.691 Y72.749 E.0154
G1 X158.584 Y71.857 E.03289
G1 X158.584 Y72.448 E.0154
G1 X158.282 Y72.749 E.01111
G1 X158.222 Y72.833 E.00269
;WIDTH:0.411095
G1 X158.162 Y72.917 E.00244
;WIDTH:0.37219
G1 X158.091 Y72.898 E.00156
G1 X158.11 Y72.969 E.00156
G1 X158.151 Y72.958 E.0009
M204 P1000
G1 E-.64 F2100
;WIPE_START
G1 F9600
G1 X158.11 Y72.969 E-.00882
G1 X158.091 Y72.898 E-.01527
