; generated by PrusaSlicer 2.6.0+win64 on 2023-08-17 at 23:54:29 UTC


;
;

;
;

;
;
; 

; external perimeters extrusion width = 0.45mm
; perimeters extrusion width = 0.45mm
; infill extrusion width = 0.45mm
; solid infill extrusion width = 0.45mm
; top infill extrusion width = 0.40mm
; first layer extrusion width = 0.50mm

M73 P0 R31
M201 X2500 Y2500 Z200 E2500 ; sets maximum accelerations, mm/sec^2
M203 X200 Y200 Z40 E100 ; sets maximum feedrates, mm / sec
M204 P2000 R1200 T2000 ; sets acceleration (P, T) and retract acceleration (R), mm/sec^2
M205 X8.00 Y8.00 Z2.00 E10.00 ; sets the jerk limits, mm/sec
M205 S0 T0 ; sets the minimum extruding and travel feed rate, mm/sec
;TYPE:Custom
M17 ; enable steppers
M862.3 P "MK4" ; printer model check
M862.1 P0.4 ; nozzle diameter check
M555 X118.496 Y63.5302 W32 H78.9395

G90 ; use absolute coordinates
M83 ; extruder relative mode

M140 S60 ; set bed temp

M104 S170 ; set extruder temp for bed leveling
M109 R170 ; wait for temp


M84 E ; turn off E motor

G28 ; home all without mesh bed level

G1 X42 Y-4 Z5 F4800

M302 S160 ; lower cold extrusion limit to 160C


G1 E-2 F2400 ; retraction


M84 E ; turn off E motor

G29 P9 X10 Y-4 W32 H4

M106 S100

G0 Z40 F10000

M190 S60 ; wait for bed temp

M107

;
; MBL
;
M84 E ; turn off E motor
G29 P1 ; invalidate mbl & probe print area
G29 P1 X0 Y0 W50 H20 C ; probe near purge place
G29 P3.2 ; interpolate mbl probes
G29 P3.13 ; extrapolate mbl outside probe area
G29 A ; activate mbl

; prepare for purge
M104 S215
G0 X0 Y-4 Z15 F4800 ; move away and ready for the purge
M109 S215

G92 E0
M569 S0 E ; set spreadcycle mode for extruder

;
; Extrude purge line
;
G92 E0 ; reset extruder position
G1 E2 F2400 ; deretraction after the initial one before nozzle cleaning
G0 E7 X15 Z0.2 F500 ; purge
G0 X25 E4 F500 ; purge
G0 X35 E4 F650 ; purge
G0 X45 E4 F800 ; purge
G0 X48 Z0.05 F8000 ; wipe, move close to the bed
G0 X51 Z0.2 F8000 ; wipe, move quickly away from the bed

G92 E0
M221 S100 ; set flow to 100%
G21 ; set units to millimeters
G90 ; use absolute coordinates
M83 ; use relative distances for extrusion
M900 K0.05 ; Filament gcode

M142 S36 ; set heatbreak target temp
M107
;LAYER_CHANGE
;Z:0.2
;HEIGHT:0.2
;BEFORE_LAYER_CHANGE
G92 E0.0
;0.2


G1 E-.8 F2100
G1 Z.2 F720
;AFTER_LAYER_CHANGE
;0.2
; printing object plusplus toggle test .stl id:0 copy 0
G1 Z.4
G1 X119.403 Y141.563 F12000
G1 Z.2 F720
G1 E.8 F1500
M204 P600
;TYPE:Perimeter
;WIDTH:0.499999
G1 F1200
G1 X119.403 Y68.437 E2.77925
G1 X128.466 Y68.44 E.34445
G1 X129.002 Y68.512 E.02055
G1 X129.532 Y68.735 E.02185
G1 X129.965 Y69.07 E.02081
G1 X130.299 Y69.503 E.02078
G1 X130.523 Y70.033 E.02187
G1 X130.597 Y70.656 E.02384
G1 X130.597 Y141.563 E2.69491
G1 X119.463 Y141.563 E.42316
M204 P1000
G1 X118.946 Y142.02 F12000
M204 P600
;TYPE:External perimeter
G1 F1200
G1 X118.946 Y67.98 E2.81398
G1 X128.496 Y67.984 E.36296
G1 X129.137 Y68.073 E.0246
G1 X129.764 Y68.337 E.02586
G1 X130.291 Y68.744 E.02531
G1 X130.697 Y69.27 E.02525
M73 P0 R30
G1 X130.891 Y69.73 E.01897
G1 X131.005 Y70.108 E.01501
G1 X131.054 Y70.656 E.02091
G1 X131.054 Y142.02 E2.71228
M73 P1 R30
G1 X119.006 Y142.02 E.4579
M204 P1000
G1 X118.968 Y141.62 F12000
G1 E-.64 F2100
;WIPE_START
G1 F9600
G1 X119.005 Y141.25 E-.16
;WIPE_END
G1 Z.4 F720
G1 X125.552 Y76.887 F12000
G1 Z.2 F720
G1 E.8 F1500
M204 P600
;TYPE:Perimeter
G1 F1200
G1 X124.741 Y76.8 E.031
G1 X123.915 Y76.478 E.03369
G1 X123.211 Y75.963 E.03315
G1 X122.662 Y75.289 E.03304
G1 X122.299 Y74.486 E.03349
G1 X122.154 Y73.587 E.03461
G1 X122.251 Y72.681 E.03463
G1 X122.299 Y72.506 E.0069
G1 X122.573 Y71.855 E.02684
G1 X123.088 Y71.152 E.03312
G1 X123.762 Y70.603 E.03304
G1 X124.565 Y70.239 E.03351
G1 X125.464 Y70.094 E.03461
G1 X126.37 Y70.192 E.03463
G1 X127.196 Y70.514 E.03369
G1 X127.723 Y70.893 E.02467
G1 X128.023 Y71.152 E.01506
G1 X128.448 Y71.703 E.02645
G1 X128.812 Y72.506 E.03351
G1 X128.957 Y73.404 E.03457
G1 X128.86 Y74.31 E.03463
G1 X128.537 Y75.136 E.03371
G1 X128.023 Y75.84 E.03313
G1 X127.348 Y76.389 E.03307
G1 X126.545 Y76.752 E.03349
G1 X125.647 Y76.897 E.03457
G1 X125.612 Y76.894 E.00134
M204 P1000
G1 X125.464 Y76.429 F12000
M204 P600
;TYPE:External perimeter
G1 F1200
G1 X124.801 Y76.347 E.02539
G1 X124.092 Y76.057 E.02911
G1 X123.491 Y75.601 E.02867
G1 X123.024 Y75.009 E.02866
G1 X122.72 Y74.308 E.02904
G1 X122.607 Y73.526 E.03003
G1 X122.704 Y72.742 E.03002
G1 X122.72 Y72.684 E.00229
G1 X122.995 Y72.033 E.02686
G1 X123.45 Y71.431 E.02868
G1 X124.042 Y70.965 E.02863
G1 X124.743 Y70.66 E.02905
G1 X125.525 Y70.547 E.03003
G1 X126.309 Y70.645 E.03003
G1 X127.018 Y70.935 E.02911
G1 X127.661 Y71.431 E.03086
G1 X128.086 Y71.982 E.02645
G1 X128.391 Y72.684 E.02909
G1 X128.504 Y73.465 E.02999
G1 X128.406 Y74.25 E.03007
G1 X128.116 Y74.959 E.02911
G1 X127.661 Y75.56 E.02865
G1 X127.069 Y76.027 E.02866
G1 X126.367 Y76.331 E.02907
G1 X125.586 Y76.444 E.02999
G1 X125.523 Y76.436 E.00241
M204 P1000
G1 X125.248 Y76.766 F12000
G1 E-.64 F2100
;WIPE_START
G1 F9600
G1 X124.801 Y76.347 E-.15118
G1 X124.762 Y76.331 E-.00882
;WIPE_END
G1 Z.4 F720
G1 X126.463 Y134.769 F12000
G1 Z.2 F720
G1 E.8 F1500
M204 P600
;TYPE:Perimeter
G1 F1200
G1 X125.659 Y134.899 E.03095
G1 X124.753 Y134.802 E.03463
G1 X123.927 Y134.48 E.03369
G1 X123.223 Y133.965 E.03315
G1 X122.674 Y133.291 E.03304
G1 X122.311 Y132.488 E.03349
G1 X122.166 Y131.589 E.03461
G1 X122.263 Y130.683 E.03463
G1 X122.585 Y129.857 E.03369
G1 X123.1 Y129.154 E.03312
G1 X123.774 Y128.605 E.03304
G1 X124.577 Y128.241 E.03351
G1 X125.476 Y128.096 E.03461
G1 X126.382 Y128.193 E.03463
G1 X127.208 Y128.516 E.03371
G1 X127.911 Y129.03 E.0331
G1 X128.46 Y129.705 E.03307
G1 X128.824 Y130.508 E.03351
G1 X128.969 Y131.406 E.03457
G1 X128.871 Y132.312 E.03463
G1 X128.549 Y133.138 E.03369
G1 X128.034 Y133.842 E.03315
G1 X127.36 Y134.39 E.03301
G1 X127.208 Y134.48 E.00671
G1 X126.522 Y134.76 E.02816
M204 P1000
G1 X126.414 Y134.318 F12000
M204 P600
;TYPE:External perimeter
G1 F1200
G1 X126.379 Y134.333 E.00145
G1 X125.598 Y134.446 E.02999
G1 X124.813 Y134.349 E.03006
G1 X124.104 Y134.058 E.02913
G1 X123.503 Y133.603 E.02865
G1 X123.036 Y133.011 E.02866
G1 X122.732 Y132.31 E.02904
G1 X122.619 Y131.528 E.03003
G1 X122.716 Y130.744 E.03002
G1 X123.007 Y130.035 E.02913
G1 X123.462 Y129.433 E.02868
G1 X124.054 Y128.967 E.02863
G1 X124.755 Y128.662 E.02905
G1 X125.537 Y128.549 E.03003
G1 X126.321 Y128.646 E.03002
G1 X127.03 Y128.937 E.02913
G1 X127.632 Y129.392 E.02868
G1 X128.098 Y129.984 E.02863
G1 X128.403 Y130.685 E.02905
G1 X128.516 Y131.467 E.03003
G1 X128.418 Y132.251 E.03003
G1 X128.128 Y132.96 E.02911
G1 X127.673 Y133.562 E.02868
G1 X127.081 Y134.029 E.02866
G1 X126.47 Y134.295 E.02533
M204 P1000
G1 X126.411 Y134.356 F12000
G1 E-.64 F2100
;WIPE_START
G1 F9600
G1 X126.379 Y134.333 E-.02049
G1 X125.715 Y134.429 E-.13951
;WIPE_END
G1 Z.4 F720
G1 X128.304 Y68.643 F12000
G1 Z.2 F720
G1 E.8 F1500
M204 P600
;TYPE:Solid infill
;WIDTH:0.501862
G1 F1200
G1 X130.179 Y70.518 E.10119
G1 X130.186 Y71.174 E.02504
G1 X127.86 Y68.849 E.1255
G1 X127.211 Y68.849 E.02477
G1 X130.186 Y71.823 E.16053
G1 X130.186 Y72.472 E.02477
G1 X126.562 Y68.849 E.19555
G1 X125.913 Y68.849 E.02477
G1 X127.085 Y70.021 E.06325
G1 X127.367 Y70.139 E.01167
G1 X127.591 Y70.271 E.00992
G1 X128.253 Y70.791 E.03212
G1 X128.78 Y71.46 E.0325
G1 X128.912 Y71.684 E.00992
G1 X129.03 Y71.966 E.01167
G1 X130.186 Y73.121 E.06236
G1 X130.186 Y73.77 E.02477
G1 X129.299 Y72.884 E.04784
G1 X129.376 Y73.496 E.02354
G1 X129.363 Y73.597 E.00389
G1 X130.186 Y74.419 E.04439
G1 X130.186 Y75.069 E.0248
G1 X129.29 Y74.173 E.04836
G1 X129.26 Y74.415 E.00931
G1 X129.168 Y74.7 E.01143
G1 X130.186 Y75.718 E.05494
G1 X130.186 Y76.367 E.02477
G1 X128.975 Y75.156 E.06536
G1 X128.912 Y75.307 E.00624
G1 X128.746 Y75.576 E.01206
G1 X130.186 Y77.016 E.07771
G1 X130.186 Y77.665 E.02477
G1 X128.463 Y75.942 E.09299
G1 X128.341 Y76.1 E.00762
G1 X128.156 Y76.284 E.00996
G1 X130.186 Y78.314 E.10956
G1 X130.186 Y78.963 E.02477
G1 X127.79 Y76.567 E.12931
G1 X127.59 Y76.721 E.00963
G1 X127.404 Y76.83 E.00823
G1 X130.186 Y79.612 E.15014
G1 X130.186 Y80.261 E.02477
G1 X126.952 Y77.027 E.17453
G1 X126.694 Y77.136 E.01069
G1 X126.472 Y77.196 E.00878
G1 X130.186 Y80.91 E.20044
G1 X130.186 Y81.559 E.02477
G1 X125.901 Y77.274 E.23125
G1 X125.577 Y77.315 E.01246
G1 X125.263 Y77.285 E.01204
G1 X130.186 Y82.208 E.26568
G1 X130.186 Y82.857 E.02477
G1 X124.114 Y76.785 E.32769
M204 P1000
G1 E-.64 F2100
;WIPE_START
G1 F9600
G1 X124.658 Y77.329 E-.16
;WIPE_END
G1 Z.4 F720
G1 X126.406 Y69.99 F12000
G1 Z.2 F720
G1 E.8 F1500
M204 P600
G1 F1200
G1 X125.264 Y68.849 E.0616
G1 X124.615 Y68.849 E.02477
G1 X125.45 Y69.683 E.04504
G1 X124.876 Y69.759 E.0221
G1 X123.966 Y68.849 E.04911
G1 X123.317 Y68.849 E.02477
G1 X124.351 Y69.883 E.0558
G1 X123.895 Y70.076 E.0189
M73 P2 R30
G1 X122.668 Y68.849 E.06622
G1 X122.019 Y68.849 E.02477
G1 X123.475 Y70.305 E.07858
G1 X123.109 Y70.588 E.01766
G1 X121.37 Y68.849 E.09385
G1 X120.721 Y68.849 E.02477
G1 X122.767 Y70.895 E.11042
G1 X122.484 Y71.261 E.01766
G1 X120.072 Y68.849 E.13017
G1 X119.814 Y68.849 E.00985
G1 X119.814 Y69.24 E.01492
G1 X122.221 Y71.647 E.1299
G1 X122.024 Y72.099 E.01882
G1 X119.814 Y69.889 E.11927
G1 X119.814 Y70.538 E.02477
G1 X121.855 Y72.579 E.11015
G1 X121.778 Y73.151 E.02203
G1 X119.814 Y71.187 E.10599
G1 X119.814 Y71.836 E.02477
G1 X121.773 Y73.795 E.10572
G1 X121.851 Y74.415 E.02385
G1 X121.895 Y74.567 E.00604
G1 X119.814 Y72.485 E.11233
G1 X119.814 Y73.134 E.02477
G1 X130.186 Y83.506 E.55976
G1 X130.186 Y84.155 E.02477
G1 X119.814 Y73.783 E.55976
G1 X119.814 Y74.432 E.02477
G1 X130.186 Y84.804 E.55976
G1 X130.186 Y85.453 E.02477
G1 X119.814 Y75.082 E.55973
G1 X119.814 Y75.731 E.02477
G1 X130.186 Y86.102 E.55973
G1 X130.186 Y86.751 E.02477
G1 X119.814 Y76.38 E.55973
G1 X119.814 Y77.029 E.02477
G1 X130.186 Y87.4 E.55973
G1 X130.186 Y88.049 E.02477
G1 X119.814 Y77.678 E.55973
G1 X119.814 Y78.327 E.02477
G1 X130.186 Y88.698 E.55973
G1 X130.186 Y89.347 E.02477
G1 X119.814 Y78.976 E.55973
G1 X119.814 Y79.625 E.02477
G1 X130.186 Y89.996 E.55973
G1 X130.186 Y90.646 E.0248
G1 X119.814 Y80.274 E.55976
G1 X119.814 Y80.923 E.02477
G1 X130.186 Y91.295 E.55976
G1 X130.186 Y91.944 E.02477
G1 X119.814 Y81.572 E.55976
G1 X119.814 Y82.221 E.02477
G1 X130.186 Y92.593 E.55976
G1 X130.186 Y93.242 E.02477
G1 X119.814 Y82.87 E.55976
G1 X119.814 Y83.519 E.02477
G1 X130.186 Y93.891 E.55976
G1 X130.186 Y94.54 E.02477
G1 X119.814 Y84.168 E.55976
G1 X119.814 Y84.817 E.02477
G1 X130.186 Y95.189 E.55976
G1 X130.186 Y95.838 E.02477
G1 X119.814 Y85.466 E.55976
G1 X119.814 Y86.115 E.02477
G1 X130.186 Y96.487 E.55976
G1 X130.186 Y97.136 E.02477
G1 X119.814 Y86.764 E.55976
G1 X119.814 Y87.413 E.02477
G1 X130.186 Y97.785 E.55976
G1 X130.186 Y98.434 E.02477
G1 X119.814 Y88.062 E.55976
G1 X119.814 Y88.711 E.02477
G1 X130.186 Y99.083 E.55976
G1 X130.186 Y99.732 E.02477
M73 P3 R30
G1 X119.814 Y89.36 E.55976
G1 X119.814 Y90.009 E.02477
G1 X130.186 Y100.381 E.55976
G1 X130.186 Y101.03 E.02477
G1 X119.814 Y90.659 E.55973
G1 X119.814 Y91.308 E.02477
G1 X130.186 Y101.679 E.55973
G1 X130.186 Y102.328 E.02477
G1 X119.814 Y91.957 E.55973
G1 X119.814 Y92.606 E.02477
G1 X130.186 Y102.977 E.55973
G1 X130.186 Y103.626 E.02477
G1 X119.814 Y93.255 E.55973
G1 X119.814 Y93.904 E.02477
G1 X130.186 Y104.275 E.55973
G1 X130.186 Y104.924 E.02477
G1 X119.814 Y94.553 E.55973
G1 X119.814 Y95.202 E.02477
G1 X130.186 Y105.573 E.55973
G1 X130.186 Y106.223 E.0248
G1 X119.814 Y95.851 E.55976
G1 X119.814 Y96.5 E.02477
G1 X130.186 Y106.872 E.55976
G1 X130.186 Y107.521 E.02477
G1 X119.814 Y97.149 E.55976
G1 X119.814 Y97.798 E.02477
G1 X130.186 Y108.17 E.55976
G1 X130.186 Y108.819 E.02477
G1 X119.814 Y98.447 E.55976
G1 X119.814 Y99.096 E.02477
G1 X130.186 Y109.468 E.55976
G1 X130.186 Y110.117 E.02477
G1 X119.814 Y99.745 E.55976
G1 X119.814 Y100.394 E.02477
G1 X130.186 Y110.766 E.55976
G1 X130.186 Y111.415 E.02477
G1 X119.814 Y101.043 E.55976
G1 X119.814 Y101.692 E.02477
G1 X130.186 Y112.064 E.55976
G1 X130.186 Y112.713 E.02477
G1 X119.814 Y102.341 E.55976
G1 X119.814 Y102.99 E.02477
G1 X130.186 Y113.362 E.55976
G1 X130.186 Y114.011 E.02477
G1 X119.814 Y103.639 E.55976
G1 X119.814 Y104.288 E.02477
G1 X130.186 Y114.66 E.55976
G1 X130.186 Y115.309 E.02477
M73 P4 R30
G1 X119.814 Y104.937 E.55976
G1 X119.814 Y105.586 E.02477
G1 X130.186 Y115.958 E.55976
G1 X130.186 Y116.607 E.02477
M73 P4 R29
G1 X119.814 Y106.236 E.55973
G1 X119.814 Y106.885 E.02477
G1 X130.186 Y117.256 E.55973
G1 X130.186 Y117.905 E.02477
G1 X119.814 Y107.534 E.55973
G1 X119.814 Y108.183 E.02477
G1 X130.186 Y118.554 E.55973
G1 X130.186 Y119.203 E.02477
G1 X119.814 Y108.832 E.55973
G1 X119.814 Y109.481 E.02477
G1 X130.186 Y119.852 E.55973
G1 X130.186 Y120.501 E.02477
G1 X119.814 Y110.13 E.55973
G1 X119.814 Y110.779 E.02477
G1 X130.186 Y121.15 E.55973
G1 X130.186 Y121.8 E.0248
G1 X119.814 Y111.428 E.55976
G1 X119.814 Y112.077 E.02477
G1 X130.186 Y122.449 E.55976
G1 X130.186 Y123.098 E.02477
G1 X119.814 Y112.726 E.55976
G1 X119.814 Y113.375 E.02477
G1 X130.186 Y123.747 E.55976
G1 X130.186 Y124.396 E.02477
G1 X119.814 Y114.024 E.55976
G1 X119.814 Y114.673 E.02477
G1 X130.186 Y125.045 E.55976
G1 X130.186 Y125.694 E.02477
G1 X119.814 Y115.322 E.55976
G1 X119.814 Y115.971 E.02477
G1 X130.186 Y126.343 E.55976
G1 X130.186 Y126.992 E.02477
G1 X119.814 Y116.62 E.55976
G1 X119.814 Y117.269 E.02477
G1 X130.186 Y127.641 E.55976
G1 X130.186 Y128.29 E.02477
G1 X119.814 Y117.918 E.55976
G1 X119.814 Y118.567 E.02477
G1 X130.186 Y128.939 E.55976
G1 X130.186 Y129.588 E.02477
G1 X119.814 Y119.216 E.55976
G1 X119.814 Y119.865 E.02477
G1 X130.186 Y130.237 E.55976
G1 X130.186 Y130.886 E.02477
M73 P5 R29
G1 X119.814 Y120.514 E.55976
G1 X119.814 Y121.163 E.02477
G1 X126.436 Y127.786 E.3574
G1 X125.688 Y127.687 E.02879
G1 X119.814 Y121.813 E.31701
G1 X119.814 Y122.462 E.02477
G1 X125.089 Y127.737 E.28468
G1 X124.561 Y127.812 E.02035
G1 X124.528 Y127.825 E.00135
G1 X119.814 Y123.111 E.25441
G1 X119.814 Y123.76 E.02477
G1 X124.068 Y128.013 E.22955
G1 X123.757 Y128.141 E.01283
G1 X123.624 Y128.218 E.00586
G1 X119.814 Y124.409 E.20559
G1 X119.814 Y125.058 E.02477
G1 X123.248 Y128.492 E.18533
G1 X122.963 Y128.712 E.01374
G1 X122.891 Y128.784 E.00389
G1 X119.814 Y125.707 E.16606
G1 X119.814 Y126.356 E.02477
G1 X122.594 Y129.136 E.15003
G1 X122.316 Y129.507 E.01769
G1 X119.814 Y127.005 E.13503
G1 X119.814 Y127.654 E.02477
G1 X122.103 Y129.943 E.12353
G1 X121.915 Y130.404 E.019
G1 X119.814 Y128.303 E.11339
G1 X119.814 Y128.952 E.02477
G1 X121.815 Y130.953 E.10799
G1 X121.747 Y131.498 E.02096
G1 X121.752 Y131.539 E.00158
G1 X119.814 Y129.601 E.10459
G1 X119.814 Y130.25 E.02477
G1 X122.117 Y132.553 E.12429
M204 P1000
G1 E-.64 F2100
;WIPE_START
G1 F9600
G1 X121.573 Y132.009 E-.16
;WIPE_END
G1 Z.4 F720
G1 X128.966 Y130.315 F12000
G1 Z.2 F720
G1 E.8 F1500
M204 P600
G1 F1200
G1 X130.186 Y131.535 E.06584
G1 X130.186 Y132.184 E.02477
G1 X129.372 Y131.37 E.04393
G1 X129.388 Y131.498 E.00492
G1 X129.328 Y131.975 E.01835
G1 X130.186 Y132.833 E.0463
G1 X130.186 Y133.482 E.02477
G1 X129.237 Y132.534 E.05119
G1 X129.207 Y132.638 E.00413
G1 X129.054 Y133 E.015
G1 X130.186 Y134.131 E.06106
G1 X130.186 Y134.78 E.02477
G1 X128.846 Y133.441 E.07229
G1 X128.793 Y133.533 E.00405
G1 X128.573 Y133.817 E.01371
G1 X130.186 Y135.429 E.08702
G1 X130.186 Y136.078 E.02477
G1 X128.281 Y134.174 E.10278
G1 X128.172 Y134.283 E.00588
G1 X127.929 Y134.471 E.01172
G1 X130.186 Y136.728 E.12181
G1 X130.186 Y137.377 E.02477
G1 X127.558 Y134.749 E.14183
G1 X127.379 Y134.854 E.00792
G1 X127.122 Y134.962 E.01064
G1 X130.186 Y138.026 E.16536
G1 X130.186 Y138.675 E.02477
G1 X126.662 Y135.151 E.19018
G1 X126.486 Y135.202 E.00699
G1 X126.112 Y135.25 E.01439
G1 X130.186 Y139.324 E.21987
G1 X130.186 Y139.973 E.02477
G1 X125.526 Y135.313 E.25149
G1 X124.785 Y135.22 E.0285
G1 X130.186 Y140.622 E.29151
G1 X130.186 Y141.151 E.02019
G1 X130.066 Y141.151 E.00458
G1 X119.814 Y130.899 E.55328
G1 X119.814 Y131.548 E.02477
G1 X129.417 Y141.151 E.51826
