; generated by PrusaSlicer 2.6.0+win64 on 2023-08-15 at 05:54:45 UTC


;
;
; 

; external perimeters extrusion width = 0.45mm
; perimeters extrusion width = 0.45mm
; infill extrusion width = 0.45mm
; solid infill extrusion width = 0.45mm
; top infill extrusion width = 0.40mm
; support material extrusion width = 0.35mm
; first layer extrusion width = 0.42mm

; external perimeters extrusion width = 0.45mm
; perimeters extrusion width = 0.45mm
; infill extrusion width = 0.45mm
; solid infill extrusion width = 0.45mm
; top infill extrusion width = 0.40mm
; support material extrusion width = 0.35mm
; first layer extrusion width = 0.42mm

M73 P0 R44
M73 Q0 S44
M201 X1000 Y1000 Z200 E5000 ; sets maximum accelerations, mm/sec^2
M203 X200 Y200 Z12 E120 ; sets maximum feedrates, mm / sec
M204 S1250 T1250 ; sets acceleration (S) and retract acceleration (R), mm/sec^2
M205 X8.00 Y8.00 Z0.40 E4.50 ; sets the jerk limits, mm/sec
M205 S0 T0 ; sets the minimum extruding and travel feed rate, mm/sec
;TYPE:Custom
M862.3 P "MK3S" ; printer model check
M862.1 P0.4 ; nozzle diameter check
M115 U3.12.2 ; tell printer latest fw version
G90 ; use absolute coordinates
M83 ; extruder relative mode
M104 S215 ; set extruder temp
M140 S60 ; set bed temp
M190 S60 ; wait for bed temp
M109 S215 ; wait for extruder temp
G28 W ; home all without mesh bed level
G80 ; mesh bed leveling

G1 Z0.2 F720
G1 Y-3 F1000 ; go outside print area
G92 E0
G1 X60 E9 F1000 ; intro line
G1 X100 E12.5 F1000 ; intro line

G92 E0
M221 S95

; Don't change E values below. Excessive value can damage the printer.
M907 E430 ; set extruder motor current
G21 ; set units to millimeters
G90 ; use absolute coordinates
M83 ; use relative distances for extrusion
M900 K0.05 ; Filament gcode LA 1.5
M900 K30 ; Filament gcode LA 1.0
M107
;LAYER_CHANGE
;Z:0.2
;HEIGHT:0.2
;BEFORE_LAYER_CHANGE
G92 E0.0
;0.2


M73 P0 R43
G1 E-.8 F2100
G1 Z.4 F720
;AFTER_LAYER_CHANGE
;0.2
G1 X74.647 Y14.126 F10800
G1 Z.2 F720
G1 E.8 F2100
M204 S800
;TYPE:Skirt/Brim
;WIDTH:0.42
G1 F1200
G1 X75.039 Y12.819 E.04278
G1 X76.084 Y11.942 E.04277
G1 X77.024 Y11.749 E.03009
G1 X87.659 Y11.751 E.33345
G1 X178.542 Y15.662 E2.85221
G1 X180.121 Y16.356 E.05408
G1 X185.121 Y21.356 E.22171
G1 X185.817 Y23.037 E.05705
G1 X185.817 Y28.037 E.15677
G1 X185.425 Y29.344 E.04278
G1 X184.38 Y30.22 E.04275
G1 X183.441 Y30.414 E.03006
G1 X109.44 Y30.448 E2.32025
G1 X76.944 Y29.353 E1.01947
G1 X75.651 Y28.917 E.04278
G1 X74.81 Y27.842 E.04279
G1 X74.647 Y26.977 E.0276
G1 X74.647 Y14.186 E.40105
M204 S1000
; printing object toggle switch.stl id:0 copy 0
;WIPE_START
G1 F8640
G1 X75.039 Y12.819 E-.32837
G1 X76.084 Y11.942 E-.31501
G1 X76.748 Y11.806 E-.15662
;WIPE_END
G1 Z.6 F720
G1 X87.557 Y26.977 F10800
G1 Z.2 F720
G1 E.8 F2100
M204 S800
;TYPE:Support material
G1 F1200
G1 X77.024 Y26.977 E.33025
G1 X77.024 Y14.126 E.40293
G1 X87.557 Y14.126 E.33025
G1 X87.557 Y26.92 E.40115
M204 S1000
;WIPE_START
G1 F8640
G1 X87.557 Y23.455 E-.8
;WIPE_END
G1 Z.6 F720
G1 X82.431 Y15.962 F10800
G1 X82.344 Y15.792
G1 X82.329 Y15.792
G1 X81.592 Y14.712
G1 Z.2 F720
G1 E.8 F2100
M204 S800
G1 F1200
G1 X82.989 Y14.712 E.0438
G1 X83.271 Y14.994 E.0125
G1 X83.271 Y23.791 E.27582
G1 X82.989 Y24.072 E.01248
G1 X81.592 Y24.072 E.0438
G1 X81.311 Y23.791 E.01246
G1 X81.311 Y14.994 E.27582
G1 X81.552 Y14.752 E.01071
M204 S1000
;WIPE_START
G1 F8640
G1 X81.311 Y14.994 E-.07886
G1 X81.311 Y18.117 E-.72114
;WIPE_END
G1 Z.6 F720
G1 X82.141 Y19.407 F10800
G1 X82.441 Y22.805
G1 X82.441 Y19.874
G1 X86.899 Y26.807
G1 Z.2 F720
G1 E.8 F2100
M204 S800
G1 F1200
G1 X86.899 Y14.465 E.38697
G1 X86.48 Y14.465 E.01314
G1 X86.48 Y26.637 E.38164
G1 X86.061 Y26.637 E.01314
G1 X86.061 Y14.465 E.38164
G1 X85.642 Y14.465 E.01314
M73 P1 R43
G1 X85.642 Y26.637 E.38164
G1 X85.224 Y26.637 E.01311
M73 Q1 S44
G1 X85.224 Y14.465 E.38164
G1 X84.805 Y14.465 E.01314
G1 X84.805 Y26.637 E.38164
G1 X84.386 Y26.637 E.01314
G1 X84.386 Y14.465 E.38164
G1 X83.967 Y14.465 E.01314
G1 X83.967 Y26.637 E.38164
G1 X83.548 Y26.637 E.01314
G1 X83.548 Y14.295 E.38697
M204 S1000
G1 X83.129 Y26.807 F10800
M204 S800
G1 F1200
G1 X83.129 Y24.412 E.07509
G1 X82.71 Y24.412 E.01314
G1 X82.71 Y26.637 E.06976
G1 X82.291 Y26.637 E.01314
G1 X82.291 Y24.412 E.06976
G1 X81.872 Y24.412 E.01314
G1 X81.872 Y26.637 E.06976
G1 X81.453 Y26.637 E.01314
G1 X81.453 Y24.173 E.07726
M204 S1000
G1 X81.034 Y26.807 F10800
M204 S800
G1 F1200
G1 X81.034 Y14.465 E.38697
G1 X80.615 Y14.465 E.01314
G1 X80.615 Y26.637 E.38164
G1 X80.196 Y26.637 E.01314
G1 X80.196 Y14.465 E.38164
G1 X79.777 Y14.465 E.01314
G1 X79.777 Y26.637 E.38164
G1 X79.358 Y26.637 E.01314
G1 X79.358 Y14.465 E.38164
G1 X78.939 Y14.465 E.01314
G1 X78.939 Y26.637 E.38164
G1 X78.52 Y26.637 E.01314
G1 X78.52 Y14.465 E.38164
G1 X78.101 Y14.465 E.01314
G1 X78.101 Y26.637 E.38164
G1 X77.682 Y26.637 E.01314
G1 X77.682 Y14.295 E.38697
M204 S1000
;WIPE_START
G1 F8640
G1 X77.682 Y17.76 E-.8
;WIPE_END
G1 Z.6 F720
G1 X82.173 Y22.868 F10800
G1 X82.237 Y22.992
G1 X82.53 Y23.332
G1 Z.2 F720
G1 E.8 F2100
M204 S800
;TYPE:External perimeter
;WIDTH:0.521457
G1 F1200
G1 X82.051 Y23.332 E.01906
G1 X82.051 Y15.453 E.31351
G1 X82.53 Y15.453 E.01906
G1 X82.53 Y23.272 E.31112
M204 S1000
G1 X82.18 Y23.139 F10800
; stop printing object toggle switch.stl id:0 copy 0
; printing object battery arm.stl id:1 copy 0
;WIPE_START
G1 F8640
G1 X82.051 Y23.332 E-.11147
G1 X82.051 Y20.35 E-.68853
;WIPE_END
G1 Z.6 F720
G1 X117.53 Y20.849 F10800
G1 Z.2 F720
G1 E.8 F2100
M204 S800
;WIDTH:0.419999
G1 F1200
G1 X117.53 Y27.66 E.21355
G1 X109.85 Y27.66 E.2408
G1 X109.85 Y23.48 E.13106
G1 X114.661 Y23.48 E.15085
G1 X114.778 Y23.44 E.00388
G1 X114.85 Y23.292 E.00516
G1 X114.85 Y18.447 E.15191
G1 X178.03 Y18.447 E1.98096
G1 X178.03 Y23.258 E.15085
G1 X178.102 Y23.406 E.00516
G1 X178.219 Y23.447 E.00389
G1 X183.03 Y23.447 E.15085
G1 X183.03 Y27.627 E.13106
G1 X175.35 Y27.627 E.2408
G1 X175.35 Y20.849 E.21252
G1 X175.318 Y20.745 E.00341
G1 X175.161 Y20.66 E.0056
G1 X117.718 Y20.66 E1.80108
G1 X117.624 Y20.686 E.00306
G1 X117.56 Y20.797 E.00402
M204 S1000
G1 X117.144 Y20.953 F10800
G1 X117.183 Y20.75
M204 S800
;TYPE:Perimeter
G1 F1200
G1 X117.153 Y20.849 E.00324
G1 X117.153 Y27.283 E.20173
G1 X110.227 Y27.283 E.21716
G1 X110.227 Y23.858 E.10739
G1 X114.661 Y23.858 E.13902
G1 X114.759 Y23.849 E.00309
G1 X115.012 Y23.736 E.00869
G1 X115.164 Y23.551 E.00751
G1 X115.227 Y23.292 E.00836
G1 X115.227 Y18.824 E.14009
G1 X177.653 Y18.824 E1.95732
G1 X177.653 Y23.258 E.13902
G1 X177.716 Y23.517 E.00836
M73 P2 R43
G1 X177.868 Y23.702 E.00751
G1 X178.044 Y23.796 E.00626
G1 X178.219 Y23.824 E.00556
G1 X182.653 Y23.824 E.13902
G1 X182.653 Y27.249 E.10739
G1 X175.727 Y27.249 E.21716
G1 X175.727 Y20.849 E.20067
G1 X175.633 Y20.536 E.01025
M73 Q2 S44
G1 X175.444 Y20.359 E.00812
G1 X175.161 Y20.283 E.00919
G1 X117.718 Y20.283 E1.80108
G1 X117.436 Y20.359 E.00916
G1 X117.247 Y20.536 E.00812
G1 X117.2 Y20.693 E.00514
M204 S1000
;WIPE_START
G1 F8640
G1 X117.153 Y20.849 E-.03762
G1 X117.153 Y24.151 E-.76238
;WIPE_END
G1 Z.6 F720
G1 X117.374 Y24.151 F10800
G1 X117.374 Y20.505
G1 X175.506 Y20.505
G1 X175.506 Y27.471
M73 Q2 S43
G1 X182.874 Y27.471
G1 X182.874 Y24.757
G1 X182.483 Y24.757
G1 Z.2 F720
G1 E.8 F2100
M204 S800
;TYPE:Solid infill
;WIDTH:0.420456
G1 F1200
G1 X181.89 Y24.163 E.02635
G1 X181.356 Y24.163 E.01676
G1 X182.314 Y25.121 E.04253
G1 X182.314 Y25.655 E.01676
G1 X180.822 Y24.163 E.06624
G1 X180.288 Y24.163 E.01676
G1 X182.314 Y26.189 E.08994
G1 X182.314 Y26.722 E.01673
G1 X179.754 Y24.163 E.11363
G1 X179.22 Y24.163 E.01676
G1 X181.967 Y26.91 E.12195
G1 X181.433 Y26.91 E.01676
G1 X178.516 Y23.993 E.1295
M204 S1000
;WIPE_START
G1 F8640
G1 X180.966 Y26.443 E-.8
;WIPE_END
G1 Z.6 F720
G1 X177.874 Y23.602 F10800
G1 X177.874 Y19.757
G1 X177.483 Y19.757
G1 Z.2 F720
G1 E.8 F2100
M204 S800
G1 F1200
G1 X176.89 Y19.163 E.02635
G1 X176.356 Y19.163 E.01676
G1 X177.314 Y20.121 E.04253
G1 X177.314 Y20.655 E.01676
G1 X175.822 Y19.163 E.06624
G1 X175.288 Y19.163 E.01676
G1 X177.314 Y21.189 E.08994
G1 X177.314 Y21.722 E.01673
G1 X174.754 Y19.163 E.11363
G1 X174.22 Y19.163 E.01676
G1 X175.001 Y19.944 E.03467
G1 X175.181 Y19.944 E.00565
G1 X175.614 Y20.06 E.01407
G1 X175.922 Y20.349 E.01326
G1 X176.066 Y20.827 E.01567
G1 X176.066 Y21.009 E.00571
G1 X177.314 Y22.256 E.05538
G1 X177.314 Y22.79 E.01676
G1 X176.066 Y21.543 E.05538
G1 X176.066 Y22.077 E.01676
G1 X177.319 Y23.33 E.05563
G1 X177.327 Y23.419 E.00281
G1 X177.414 Y23.677 E.00855
G1 X177.654 Y23.969 E.01187
G1 X177.937 Y24.12 E.01007
G1 X178.142 Y24.153 E.00652
G1 X180.899 Y26.91 E.1224
G1 X180.365 Y26.91 E.01676
G1 X176.066 Y22.611 E.19086
G1 X176.066 Y23.145 E.01676
G1 X179.832 Y26.91 E.16717
G1 X179.298 Y26.91 E.01676
G1 X176.066 Y23.679 E.14346
G1 X176.066 Y24.213 E.01676
G1 X178.764 Y26.91 E.11976
G1 X178.23 Y26.91 E.01676
G1 X176.066 Y24.747 E.09605
G1 X176.066 Y25.281 E.01676
G1 X177.696 Y26.91 E.07234
G1 X177.162 Y26.91 E.01676
G1 X176.066 Y25.815 E.04864
G1 X176.066 Y26.348 E.01673
G1 X176.628 Y26.91 E.02495
G1 X176.094 Y26.91 E.01676
G1 X175.897 Y26.713 E.00875
M204 S1000
;WIPE_START
G1 F8640
M73 P2 R42
G1 X176.094 Y26.91 E-.06433
G1 X176.628 Y26.91 E-.1233
G1 X176.066 Y26.348 E-.18352
G1 X176.066 Y25.815 E-.12307
G1 X177.003 Y26.751 E-.30578
;WIPE_END
G1 Z.6 F720
G1 X177.003 Y27.471 F10800
G1 X175.506 Y20.505
G1 X174.637 Y20.505
G1 X174.637 Y20.114
G1 Z.2 F720
G1 E.8 F2100
M204 S800
G1 F1200
G1 X173.686 Y19.163 E.04222
G1 X173.152 Y19.163 E.01676
G1 X173.933 Y19.944 E.03467
G1 X173.399 Y19.944 E.01676
G1 X172.618 Y19.163 E.03467
G1 X172.084 Y19.163 E.01676
G1 X172.865 Y19.944 E.03467
G1 X172.332 Y19.944 E.01673
G1 X171.55 Y19.163 E.03469
G1 X171.017 Y19.163 E.01673
G1 X171.798 Y19.944 E.03467
G1 X171.264 Y19.944 E.01676
G1 X170.483 Y19.163 E.03467
G1 X169.949 Y19.163 E.01676
G1 X170.73 Y19.944 E.03467
G1 X170.196 Y19.944 E.01676
G1 X169.415 Y19.163 E.03467
G1 X168.881 Y19.163 E.01676
G1 X169.662 Y19.944 E.03467
G1 X169.128 Y19.944 E.01676
G1 X168.347 Y19.163 E.03467
G1 X167.813 Y19.163 E.01676
G1 X168.594 Y19.944 E.03467
G1 X168.06 Y19.944 E.01676
G1 X167.279 Y19.163 E.03467
G1 X166.745 Y19.163 E.01676
G1 X167.526 Y19.944 E.03467
G1 X166.992 Y19.944 E.01676
G1 X166.211 Y19.163 E.03467
G1 X165.677 Y19.163 E.01676
G1 X166.458 Y19.944 E.03467
G1 X165.925 Y19.944 E.01673
G1 X165.143 Y19.163 E.03469
G1 X164.61 Y19.163 E.01673
G1 X165.391 Y19.944 E.03467
G1 X164.857 Y19.944 E.01676
G1 X164.076 Y19.163 E.03467
G1 X163.542 Y19.163 E.01676
G1 X164.323 Y19.944 E.03467
G1 X163.789 Y19.944 E.01676
G1 X163.008 Y19.163 E.03467
G1 X162.474 Y19.163 E.01676
G1 X163.255 Y19.944 E.03467
G1 X162.721 Y19.944 E.01676
G1 X161.94 Y19.163 E.03467
G1 X161.406 Y19.163 E.01676
G1 X162.187 Y19.944 E.03467
G1 X161.653 Y19.944 E.01676
G1 X160.872 Y19.163 E.03467
G1 X160.338 Y19.163 E.01676
G1 X161.119 Y19.944 E.03467
G1 X160.585 Y19.944 E.01676
G1 X159.804 Y19.163 E.03467
G1 X159.27 Y19.163 E.01676
G1 X160.051 Y19.944 E.03467
G1 X159.518 Y19.944 E.01673
G1 X158.736 Y19.163 E.03469
G1 X158.203 Y19.163 E.01673
G1 X158.984 Y19.944 E.03467
G1 X158.45 Y19.944 E.01676
G1 X157.669 Y19.163 E.03467
G1 X157.135 Y19.163 E.01676
G1 X157.916 Y19.944 E.03467
G1 X157.382 Y19.944 E.01676
G1 X156.601 Y19.163 E.03467
G1 X156.067 Y19.163 E.01676
G1 X156.848 Y19.944 E.03467
G1 X156.314 Y19.944 E.01676
G1 X155.533 Y19.163 E.03467
G1 X154.999 Y19.163 E.01676
G1 X155.78 Y19.944 E.03467
G1 X155.246 Y19.944 E.01676
G1 X154.465 Y19.163 E.03467
G1 X153.931 Y19.163 E.01676
G1 X154.712 Y19.944 E.03467
G1 X154.178 Y19.944 E.01676
G1 X153.397 Y19.163 E.03467
G1 X152.863 Y19.163 E.01676
G1 X153.644 Y19.944 E.03467
G1 X153.111 Y19.944 E.01673
G1 X152.329 Y19.163 E.03469
G1 X151.796 Y19.163 E.01673
G1 X152.577 Y19.944 E.03467
G1 X152.043 Y19.944 E.01676
G1 X151.262 Y19.163 E.03467
G1 X150.728 Y19.163 E.01676
G1 X151.509 Y19.944 E.03467
G1 X150.975 Y19.944 E.01676
G1 X150.194 Y19.163 E.03467
G1 X149.66 Y19.163 E.01676
G1 X150.441 Y19.944 E.03467
G1 X149.907 Y19.944 E.01676
G1 X149.126 Y19.163 E.03467
G1 X148.592 Y19.163 E.01676
G1 X149.373 Y19.944 E.03467
G1 X148.839 Y19.944 E.01676
G1 X148.058 Y19.163 E.03467
G1 X147.524 Y19.163 E.01676
G1 X148.305 Y19.944 E.03467
G1 X147.771 Y19.944 E.01676
G1 X146.99 Y19.163 E.03467
G1 X146.456 Y19.163 E.01676
G1 X147.237 Y19.944 E.03467
G1 X146.704 Y19.944 E.01673
G1 X145.922 Y19.163 E.03469
G1 X145.389 Y19.163 E.01673
G1 X146.17 Y19.944 E.03467
G1 X145.636 Y19.944 E.01676
G1 X144.855 Y19.163 E.03467
G1 X144.321 Y19.163 E.01676
G1 X145.102 Y19.944 E.03467
G1 X144.568 Y19.944 E.01676
G1 X143.787 Y19.163 E.03467
G1 X143.253 Y19.163 E.01676
G1 X144.034 Y19.944 E.03467
G1 X143.5 Y19.944 E.01676
G1 X142.719 Y19.163 E.03467
G1 X142.185 Y19.163 E.01676
G1 X142.966 Y19.944 E.03467
G1 X142.432 Y19.944 E.01676
G1 X141.651 Y19.163 E.03467
G1 X141.117 Y19.163 E.01676
G1 X141.898 Y19.944 E.03467
G1 X141.364 Y19.944 E.01676
G1 X140.583 Y19.163 E.03467
G1 X140.049 Y19.163 E.01676
G1 X140.83 Y19.944 E.03467
G1 X140.297 Y19.944 E.01673
G1 X139.515 Y19.163 E.03469
G1 X138.982 Y19.163 E.01673
G1 X139.763 Y19.944 E.03467
G1 X139.229 Y19.944 E.01676
G1 X138.448 Y19.163 E.03467
G1 X137.914 Y19.163 E.01676
G1 X138.695 Y19.944 E.03467
G1 X138.161 Y19.944 E.01676
G1 X137.38 Y19.163 E.03467
G1 X136.846 Y19.163 E.01676
G1 X137.627 Y19.944 E.03467
G1 X137.093 Y19.944 E.01676
G1 X136.312 Y19.163 E.03467
G1 X135.778 Y19.163 E.01676
G1 X136.559 Y19.944 E.03467
G1 X136.025 Y19.944 E.01676
G1 X135.244 Y19.163 E.03467
G1 X134.71 Y19.163 E.01676
G1 X135.491 Y19.944 E.03467
G1 X134.957 Y19.944 E.01676
G1 X134.176 Y19.163 E.03467
G1 X133.642 Y19.163 E.01676
G1 X134.423 Y19.944 E.03467
G1 X133.89 Y19.944 E.01673
G1 X133.108 Y19.163 E.03469
G1 X132.575 Y19.163 E.01673
G1 X133.356 Y19.944 E.03467
G1 X132.822 Y19.944 E.01676
G1 X132.041 Y19.163 E.03467
G1 X131.507 Y19.163 E.01676
G1 X132.288 Y19.944 E.03467
G1 X131.754 Y19.944 E.01676
G1 X130.973 Y19.163 E.03467
G1 X130.439 Y19.163 E.01676
G1 X131.22 Y19.944 E.03467
G1 X130.686 Y19.944 E.01676
G1 X129.905 Y19.163 E.03467
G1 X129.371 Y19.163 E.01676
G1 X130.152 Y19.944 E.03467
G1 X129.618 Y19.944 E.01676
G1 X128.837 Y19.163 E.03467
G1 X128.303 Y19.163 E.01676
G1 X129.084 Y19.944 E.03467
G1 X128.55 Y19.944 E.01676
G1 X127.769 Y19.163 E.03467
G1 X127.235 Y19.163 E.01676
G1 X128.016 Y19.944 E.03467
G1 X127.483 Y19.944 E.01673
G1 X126.701 Y19.163 E.03469
G1 X126.168 Y19.163 E.01673
G1 X126.949 Y19.944 E.03467
G1 X126.415 Y19.944 E.01676
G1 X125.634 Y19.163 E.03467
G1 X125.1 Y19.163 E.01676
G1 X125.881 Y19.944 E.03467
G1 X125.347 Y19.944 E.01676
G1 X124.566 Y19.163 E.03467
G1 X124.032 Y19.163 E.01676
G1 X124.813 Y19.944 E.03467
G1 X124.279 Y19.944 E.01676
G1 X123.498 Y19.163 E.03467
G1 X122.964 Y19.163 E.01676
G1 X123.745 Y19.944 E.03467
G1 X123.211 Y19.944 E.01676
G1 X122.43 Y19.163 E.03467
G1 X121.896 Y19.163 E.01676
G1 X122.677 Y19.944 E.03467
G1 X122.143 Y19.944 E.01676
G1 X121.362 Y19.163 E.03467
G1 X120.828 Y19.163 E.01676
G1 X121.609 Y19.944 E.03467
G1 X121.076 Y19.944 E.01673
G1 X120.294 Y19.163 E.03469
G1 X119.761 Y19.163 E.01673
G1 X120.542 Y19.944 E.03467
G1 X120.008 Y19.944 E.01676
G1 X119.227 Y19.163 E.03467
G1 X118.693 Y19.163 E.01676
G1 X119.474 Y19.944 E.03467
G1 X118.94 Y19.944 E.01676
G1 X118.159 Y19.163 E.03467
G1 X117.625 Y19.163 E.01676
G1 X118.406 Y19.944 E.03467
G1 X117.872 Y19.944 E.01676
G1 X117.091 Y19.163 E.03467
G1 X116.557 Y19.163 E.01676
G1 X117.406 Y20.012 E.03769
G1 X117.261 Y20.065 E.00485
G1 X117.088 Y20.227 E.00744
G1 X116.023 Y19.163 E.04726
G1 X115.566 Y19.163 E.01435
G1 X115.566 Y19.24 E.00242
G1 X116.892 Y20.566 E.05887
G1 X116.814 Y20.827 E.00855
G1 X116.814 Y21.021 E.00609
G1 X115.566 Y19.774 E.05538
G1 X115.566 Y20.308 E.01676
G1 X116.814 Y21.555 E.05538
G1 X116.814 Y22.089 E.01676
G1 X115.566 Y20.842 E.05538
G1 X115.566 Y21.376 E.01676
G1 X116.814 Y22.623 E.05538
G1 X116.814 Y23.157 E.01676
G1 X115.566 Y21.91 E.05538
G1 X115.566 Y22.444 E.01676
G1 X116.814 Y23.691 E.05538
G1 X116.814 Y24.225 E.01676
G1 X115.566 Y22.978 E.05538
