; generated by PrusaSlicer 2.6.0+win64 on 2023-08-15 at 05:17:15 UTC


;
;

;
;

;
;
; 

; external perimeters extrusion width = 0.45mm
; perimeters extrusion width = 0.45mm
; infill extrusion width = 0.45mm
; solid infill extrusion width = 0.45mm
; top infill extrusion width = 0.40mm
; support material extrusion width = 0.37mm
; first layer extrusion width = 0.50mm

M73 P0 R2
M201 X2500 Y2500 Z200 E2500 ; sets maximum accelerations, mm/sec^2
M203 X200 Y200 Z40 E100 ; sets maximum feedrates, mm / sec
M204 P2000 R1200 T2000 ; sets acceleration (P, T) and retract acceleration (R), mm/sec^2
M205 X8.00 Y8.00 Z2.00 E10.00 ; sets the jerk limits, mm/sec
M205 S0 T0 ; sets the minimum extruding and travel feed rate, mm/sec
;TYPE:Custom
M17 ; enable steppers
M862.3 P "MK4" ; printer model check
M862.1 P0.4 ; nozzle diameter check
M555 X77.3119 Y11.1924 W32 H15.3786

G90 ; use absolute coordinates
M83 ; extruder relative mode

M140 S60 ; set bed temp

M104 S170 ; set extruder temp for bed leveling
M109 R170 ; wait for temp


M84 E ; turn off E motor

G28 ; home all without mesh bed level

G1 X42 Y-4 Z5 F4800

M302 S160 ; lower cold extrusion limit to 160C


G1 E-2 F2400 ; retraction


M84 E ; turn off E motor

G29 P9 X10 Y-4 W32 H4

M106 S100

G0 Z40 F10000

M190 S60 ; wait for bed temp

M107

;
; MBL
;
M84 E ; turn off E motor
G29 P1 ; invalidate mbl & probe print area
G29 P1 X0 Y0 W50 H20 C ; probe near purge place
G29 P3.2 ; interpolate mbl probes
G29 P3.13 ; extrapolate mbl outside probe area
G29 A ; activate mbl

; prepare for purge
M104 S215
G0 X0 Y-4 Z15 F4800 ; move away and ready for the purge
M109 S215

G92 E0
M569 S0 E ; set spreadcycle mode for extruder

;
; Extrude purge line
;
G92 E0 ; reset extruder position
G1 E2 F2400 ; deretraction after the initial one before nozzle cleaning
G0 E7 X15 Z0.2 F500 ; purge
G0 X25 E4 F500 ; purge
G0 X35 E4 F650 ; purge
G0 X45 E4 F800 ; purge
G0 X48 Z0.05 F8000 ; wipe, move close to the bed
G0 X51 Z0.2 F8000 ; wipe, move quickly away from the bed

G92 E0
M221 S100 ; set flow to 100%
G21 ; set units to millimeters
G90 ; use absolute coordinates
M83 ; use relative distances for extrusion
M900 K0.05 ; Filament gcode

M142 S36 ; set heatbreak target temp
M107
;LAYER_CHANGE
;Z:0.2
;HEIGHT:0.2
;BEFORE_LAYER_CHANGE
G92 E0.0
;0.2


G1 E-.8 F2100
M73 P1 R2
G1 Z.2 F720
;AFTER_LAYER_CHANGE
;0.2
; printing object toggle switch.stl id:0 copy 0
M73 P2 R2
G1 Z.4
G1 X81.181 Y23.845 F12000
M73 P3 R2
G1 Z.2 F720
M73 P4 R2
G1 E.8 F1500
M204 P600
;TYPE:Support material
;WIDTH:0.5
M73 P5 R2
G1 F1200
G1 X81.538 Y24.202 E.01919
G1 X83.043 Y24.202 E.0572
G1 X83.401 Y23.845 E.01922
G1 X83.401 Y16.642 E.27376
G1 X87.041 Y16.642 E.13834
G1 X87.041 Y25.142 E.32305
M73 P6 R2
G1 X84.181 Y25.142 E.1087
G1 X84.181 Y26.342 E.04561
G1 X77.541 Y26.342 E.25236
G1 X77.541 Y15.442 E.41427
G1 X81.181 Y15.442 E.13834
G1 X81.181 Y23.777 E.31678
M204 P1000
G1 E-.64 F2100
;WIPE_START
G1 F9600
G1 X81.181 Y23.007 E-.16
;WIPE_END
G1 Z.4 F720
G1 X86.29 Y24.936 F12000
M73 P7 R2
G1 Z.2 F720
G1 E.8 F1500
M204 P600
G1 F1200
G1 X86.29 Y17.053 E.2996
M73 P8 R2
G1 X85.719 Y17.053 E.0217
G1 X85.719 Y24.73 E.29177
G1 X85.147 Y24.73 E.02174
G1 X85.147 Y17.053 E.29177
G1 X84.576 Y17.053 E.0217
G1 X84.576 Y24.73 E.29177
G1 X84.005 Y24.73 E.0217
G1 X84.005 Y17.053 E.29177
G1 X83.812 Y17.053 E.00734
G1 X83.812 Y24.015 E.2646
G1 X83.433 Y24.394 E.02037
G1 X83.433 Y25.931 E.05842
G1 X82.862 Y25.931 E.0217
M73 P9 R2
G1 X82.862 Y24.614 E.05005
G1 X82.291 Y24.614 E.0217
G1 X82.291 Y25.931 E.05005
G1 X81.719 Y25.931 E.02174
G1 X81.719 Y24.614 E.05005
G1 X81.368 Y24.614 E.01334
G1 X81.148 Y24.394 E.01182
G1 X81.148 Y25.931 E.05842
G1 X80.577 Y25.931 E.0217
M73 P10 R2
G1 X80.577 Y15.854 E.38299
G1 X80.005 Y15.854 E.02174
G1 X80.005 Y25.931 E.38299
G1 X79.434 Y25.931 E.0217
G1 X79.434 Y15.854 E.38299
G1 X78.863 Y15.854 E.0217
G1 X78.863 Y25.931 E.38299
G1 X78.291 Y25.931 E.02174
G1 X78.291 Y15.648 E.39082
M204 P1000
G1 E-.64 F2100
;WIPE_START
G1 F9600
G1 X78.291 Y16.418 E-.16
;WIPE_END
M73 P11 R2
G1 Z.4 F720
G1 X82.53 Y23.332 F12000
G1 Z.2 F720
G1 E.8 F1500
M204 P600
;TYPE:External perimeter
;WIDTH:0.521457
G1 F1200
G1 X82.051 Y23.332 E.01906
M73 P12 R2
G1 X82.051 Y15.453 E.31351
G1 X82.53 Y15.453 E.01906
G1 X82.53 Y23.272 E.31112
M204 P1000
G1 X82.18 Y23.139 F12000
; stop printing object toggle switch.stl id:0 copy 0
M106 S84.15
;LAYER_CHANGE
;Z:0.35
;HEIGHT:0.15
;BEFORE_LAYER_CHANGE
G92 E0.0
;0.35


G1 E-.64 F2100
;WIPE_START
G1 F9600
G1 X82.051 Y23.332 E-.10032
G1 X82.051 Y23.045 E-.05968
;WIPE_END
G1 Z.4 F720
;AFTER_LAYER_CHANGE
;0.35
; printing object toggle switch.stl id:0 copy 0
G1 X82.533 Y23.334 F12000
G1 Z.35 F720
G1 E.8 F1500
M204 P700
;WIDTH:0.516092
M73 P13 R2
G1 F900
G1 X82.049 Y23.334 E.01461
G1 X82.049 Y15.45 E.23792
G1 X82.533 Y15.45 E.01461
G1 X82.533 Y23.274 E.23611
M204 P1000
G1 X82.182 Y23.141 F12000
; stop printing object toggle switch.stl id:0 copy 0
M106 S170.85
;LAYER_CHANGE
;Z:0.46
;HEIGHT:0.11
;BEFORE_LAYER_CHANGE
G92 E0.0
;0.46


G1 E-.64 F2100
;WIPE_START
G1 F9600
G1 X82.049 Y23.334 E-.10135
G1 X82.049 Y23.052 E-.05865
;WIPE_END
G1 Z.55 F720
;AFTER_LAYER_CHANGE
;0.46
; printing object toggle switch.stl id:0 copy 0
G1 X83.32 Y22.111 F12000
G1 Z.46 F720
G1 E.8 F1500
;TYPE:Support material interface
;WIDTH:0.37
;HEIGHT:0.26
G1 F900
G1 X83.32 Y22.223 E.0038
G1 X83.6 Y22.223 E.00951
G1 X83.32 Y21.942 E.01347
G1 X83.32 Y21.182 E.02581
G1 X84.122 Y21.984 E.03852
M73 P14 R2
G1 X84.122 Y21.224 E.02581
G1 X83.32 Y20.421 E.03855
G1 X83.32 Y19.661 E.02581
G1 X84.122 Y20.463 E.03852
G1 X84.122 Y19.702 E.02585
G1 X83.98 Y19.56 E.00682
G1 E-.64 F2100
;WIPE_START
G1 F9600
G1 X84.122 Y19.702 E-.04173
G1 X84.122 Y20.271 E-.11827
;WIPE_END
G1 Z.66 F720
G1 X80.46 Y19.223 F12000
G1 Z.46 F720
G1 E.8 F1500
;TYPE:Support material
G1 F900
G1 X80.459 Y18.361 E.02928
G1 X81.262 Y18.361 E.02727
G1 X81.262 Y19.392 E.03502
G1 X80.46 Y19.392 E.02724
G1 X80.459 Y21.594 E.07479
G1 X80.459 Y21.73 E.00462
G1 X81.262 Y21.73 E.02727
G1 X81.262 Y23.424 E.05753
G1 X80.459 Y23.424 E.02727
G1 X80.459 Y21.899 E.0518
; stop printing object toggle switch.stl id:0 copy 0
;LAYER_CHANGE
;Z:0.5
;HEIGHT:0.04
;BEFORE_LAYER_CHANGE
G92 E0.0
;0.5


G1 E-.64 F2100
;WIPE_START
G1 F9600
G1 X80.459 Y22.669 E-.16
;WIPE_END
G1 Z.66 F720
;AFTER_LAYER_CHANGE
;0.5
; printing object toggle switch.stl id:0 copy 0
G1 X82.533 Y23.334 F12000
G1 Z.5 F720
G1 E.8 F1500
M204 P700
;TYPE:External perimeter
;WIDTH:0.516092
;HEIGHT:0.15
M73 P15 R2
G1 F900
G1 X82.049 Y23.334 E.01461
G1 X82.049 Y15.45 E.23792
G1 X82.533 Y15.45 E.01461
G1 X82.533 Y23.274 E.23611
M204 P1000
G1 X82.182 Y23.141 F12000
; stop printing object toggle switch.stl id:0 copy 0
M106 S255
;LAYER_CHANGE
;Z:0.65
;HEIGHT:0.15
;BEFORE_LAYER_CHANGE
G92 E0.0
;0.65


G1 E-.64 F2100
;WIPE_START
G1 F9600
G1 X82.049 Y23.334 E-.10135
G1 X82.049 Y23.052 E-.05865
;WIPE_END
G1 Z.7 F720
;AFTER_LAYER_CHANGE
;0.65
; printing object toggle switch.stl id:0 copy 0
G1 X82.533 Y23.334 F12000
G1 Z.65 F720
G1 E.8 F1500
M204 P700
M73 P16 R2
G1 F900
G1 X82.049 Y23.334 E.01461
G1 X82.049 Y15.45 E.23792
G1 X82.533 Y15.45 E.01461
G1 X82.533 Y23.274 E.23611
M204 P1000
G1 X82.182 Y23.141 F12000
; stop printing object toggle switch.stl id:0 copy 0
;LAYER_CHANGE
;Z:0.72
;HEIGHT:0.0700001
;BEFORE_LAYER_CHANGE
G92 E0.0
;0.72


G1 E-.64 F2100
;WIPE_START
G1 F9600
G1 X82.049 Y23.334 E-.10135
G1 X82.049 Y23.052 E-.05865
;WIPE_END
G1 Z.85 F720
;AFTER_LAYER_CHANGE
;0.72
; printing object toggle switch.stl id:0 copy 0
G1 X80.459 Y21.899 F12000
G1 Z.72 F720
G1 E.8 F1500
;TYPE:Support material
;WIDTH:0.37
;HEIGHT:0.26
G1 F900
G1 X80.459 Y23.424 E.0518
G1 X81.262 Y23.424 E.02727
G1 X81.262 Y21.73 E.05753
G1 X80.459 Y21.73 E.02727
M73 P17 R2
G1 X80.46 Y19.392 E.07941
G1 X81.262 Y19.392 E.02724
G1 X81.262 Y18.361 E.03502
G1 X80.459 Y18.361 E.02727
G1 X80.46 Y19.223 E.02928
G1 E-.64 F2100
;WIPE_START
G1 F9600
G1 X80.459 Y18.453 E-.16
;WIPE_END
G1 Z.92 F720
G1 X83.475 Y19.56 F12000
G1 Z.72 F720
G1 E.8 F1500
;TYPE:Support material interface
G1 F900
G1 X83.32 Y19.56 E.00526
G1 X83.32 Y19.885 E.01104
G1 X83.644 Y19.56 E.01559
G1 X84.122 Y19.56 E.01623
G1 X84.122 Y19.843 E.00961
G1 X83.32 Y20.645 E.03852
G1 X83.32 Y21.406 E.02585
G1 X84.122 Y20.604 E.03852
G1 X84.122 Y21.364 E.02581
G1 X83.32 Y22.166 E.03852
G1 X83.32 Y22.223 E.00194
G1 X84.024 Y22.223 E.02391
G1 X84.122 Y22.125 E.00471
; stop printing object toggle switch.stl id:0 copy 0
;LAYER_CHANGE
;Z:0.8
;HEIGHT:0.08
;BEFORE_LAYER_CHANGE
G92 E0.0
;0.8


G1 E-.64 F2100
;WIPE_START
G1 F9600
G1 X84.024 Y22.223 E-.0288
G1 X83.393 Y22.223 E-.1312
;WIPE_END
M73 P18 R2
G1 Z.92 F720
;AFTER_LAYER_CHANGE
;0.8
; printing object toggle switch.stl id:0 copy 0
G1 X82.533 Y23.334 F12000
G1 Z.8 F720
G1 E.8 F1500
M204 P700
;TYPE:External perimeter
;WIDTH:0.516092
;HEIGHT:0.15
G1 F900
G1 X82.049 Y23.334 E.01461
G1 X82.049 Y15.45 E.23792
G1 X82.533 Y15.45 E.01461
G1 X82.533 Y23.274 E.23611
M204 P1000
G1 X82.182 Y23.141 F12000
; stop printing object toggle switch.stl id:0 copy 0
;LAYER_CHANGE
;Z:0.95
;HEIGHT:0.15
;BEFORE_LAYER_CHANGE
G92 E0.0
;0.95


G1 E-.64 F2100
;WIPE_START
G1 F9600
G1 X82.049 Y23.334 E-.10135
G1 X82.049 Y23.052 E-.05865
;WIPE_END
G1 Z1 F720
;AFTER_LAYER_CHANGE
;0.95
; printing object toggle switch.stl id:0 copy 0
G1 X82.533 Y23.334 F12000
G1 Z.95 F720
G1 E.8 F1500
M204 P700
M73 P19 R2
G1 F900
G1 X82.049 Y23.334 E.01461
G1 X82.049 Y15.45 E.23792
G1 X82.533 Y15.45 E.01461
G1 X82.533 Y23.274 E.23611
M204 P1000
G1 X82.182 Y23.141 F12000
; stop printing object toggle switch.stl id:0 copy 0
;LAYER_CHANGE
;Z:0.98
;HEIGHT:0.03
;BEFORE_LAYER_CHANGE
G92 E0.0
;0.98


G1 E-.64 F2100
;WIPE_START
G1 F9600
G1 X82.049 Y23.334 E-.10135
G1 X82.049 Y23.052 E-.05865
;WIPE_END
G1 Z1.15 F720
;AFTER_LAYER_CHANGE
;0.98
; printing object toggle switch.stl id:0 copy 0
G1 X83.32 Y22.111 F12000
G1 Z.98 F720
G1 E.8 F1500
;TYPE:Support material interface
;WIDTH:0.37
;HEIGHT:0.26
M73 P19 R1
G1 F900
G1 X83.32 Y22.223 E.0038
M73 P20 R1
G1 X83.6 Y22.223 E.00951
G1 X83.32 Y21.942 E.01347
G1 X83.32 Y21.182 E.02581
G1 X84.122 Y21.984 E.03852
G1 X84.122 Y21.224 E.02581
G1 X83.32 Y20.421 E.03855
G1 X83.32 Y19.661 E.02581
G1 X84.122 Y20.463 E.03852
G1 X84.122 Y19.702 E.02585
G1 X83.98 Y19.56 E.00682
G1 E-.64 F2100
;WIPE_START
G1 F9600
G1 X84.122 Y19.702 E-.04173
G1 X84.122 Y20.271 E-.11827
;WIPE_END
G1 Z1.18 F720
G1 X80.46 Y19.223 F12000
G1 Z.98 F720
G1 E.8 F1500
;TYPE:Support material
G1 F900
G1 X80.459 Y18.361 E.02928
G1 X81.262 Y18.361 E.02727
G1 X81.262 Y19.392 E.03502
G1 X80.46 Y19.392 E.02724
G1 X80.459 Y21.594 E.07479
G1 X80.459 Y21.73 E.00462
G1 X81.262 Y21.73 E.02727
G1 X81.262 Y23.424 E.05753
G1 X80.459 Y23.424 E.02727
G1 X80.459 Y21.899 E.0518
; stop printing object toggle switch.stl id:0 copy 0
;LAYER_CHANGE
;Z:1.1
;HEIGHT:0.12
;BEFORE_LAYER_CHANGE
G92 E0.0
;1.1


G1 E-.64 F2100
;WIPE_START
G1 F9600
G1 X80.459 Y22.669 E-.16
;WIPE_END
G1 Z1.18 F720
;AFTER_LAYER_CHANGE
;1.1
; printing object toggle switch.stl id:0 copy 0
G1 X82.533 Y23.334 F12000
G1 Z1.1 F720
G1 E.8 F1500
M204 P700
;TYPE:External perimeter
;WIDTH:0.516092
;HEIGHT:0.15
M73 P21 R1
G1 F900
G1 X82.049 Y23.334 E.01461
G1 X82.049 Y15.45 E.23792
G1 X82.533 Y15.45 E.01461
G1 X82.533 Y23.274 E.23611
M204 P1000
G1 X82.182 Y23.141 F12000
; stop printing object toggle switch.stl id:0 copy 0
;LAYER_CHANGE
;Z:1.24
;HEIGHT:0.14
;BEFORE_LAYER_CHANGE
G92 E0.0
;1.24


G1 E-.64 F2100
;WIPE_START
G1 F9600
G1 X82.049 Y23.334 E-.10135
G1 X82.049 Y23.052 E-.05865
;WIPE_END
G1 Z1.3 F720
;AFTER_LAYER_CHANGE
;1.24
; printing object toggle switch.stl id:0 copy 0
G1 X80.459 Y21.899 F12000
G1 Z1.24 F720
G1 E.8 F1500
;TYPE:Support material
;WIDTH:0.37
;HEIGHT:0.26
M73 P22 R1
G1 F900
G1 X80.459 Y23.424 E.0518
G1 X81.262 Y23.424 E.02727
G1 X81.262 Y21.73 E.05753
G1 X80.459 Y21.73 E.02727
G1 X80.459 Y21.593 E.00465
G1 X80.46 Y19.392 E.07475
G1 X81.262 Y19.392 E.02724
G1 X81.262 Y18.361 E.03502
G1 X80.459 Y18.361 E.02727
G1 X80.46 Y19.223 E.02928
G1 E-.64 F2100
;WIPE_START
G1 F9600
G1 X80.459 Y18.453 E-.16
;WIPE_END
G1 Z1.44 F720
G1 X83.475 Y19.56 F12000
G1 Z1.24 F720
G1 E.8 F1500
;TYPE:Support material interface
G1 F900
G1 X83.32 Y19.56 E.00526
G1 X83.32 Y19.885 E.01104
G1 X83.644 Y19.56 E.01559
G1 X84.122 Y19.56 E.01623
G1 X84.122 Y19.843 E.00961
G1 X83.32 Y20.645 E.03852
G1 X83.32 Y21.406 E.02585
G1 X84.122 Y20.603 E.03855
G1 X84.122 Y21.364 E.02585
G1 X83.32 Y22.166 E.03852
G1 X83.32 Y22.223 E.00194
G1 X84.024 Y22.223 E.02391
G1 X84.122 Y22.125 E.00471
; stop printing object toggle switch.stl id:0 copy 0
;LAYER_CHANGE
;Z:1.25
;HEIGHT:0.00999999
;BEFORE_LAYER_CHANGE
G92 E0.0
;1.25


M73 P23 R1
G1 E-.64 F2100
;WIPE_START
G1 F9600
G1 X84.024 Y22.223 E-.0288
G1 X83.393 Y22.223 E-.1312
;WIPE_END
G1 Z1.44 F720
;AFTER_LAYER_CHANGE
;1.25
; printing object toggle switch.stl id:0 copy 0
G1 X82.533 Y23.334 F12000
G1 Z1.25 F720
G1 E.8 F1500
M204 P700
;TYPE:External perimeter
;WIDTH:0.516092
;HEIGHT:0.15
G1 F900
G1 X82.049 Y23.334 E.01461
G1 X82.049 Y15.45 E.23792
G1 X82.533 Y15.45 E.01461
G1 X82.533 Y23.274 E.23611
M204 P1000
G1 X82.182 Y23.141 F12000
; stop printing object toggle switch.stl id:0 copy 0
;LAYER_CHANGE
;Z:1.4
;HEIGHT:0.15
;BEFORE_LAYER_CHANGE
G92 E0.0
;1.4


G1 E-.64 F2100
;WIPE_START
G1 F9600
G1 X82.049 Y23.334 E-.10135
G1 X82.049 Y23.052 E-.05865
;WIPE_END
G1 Z1.45 F720
;AFTER_LAYER_CHANGE
;1.4
; printing object toggle switch.stl id:0 copy 0
G1 X82.533 Y23.334 F12000
G1 Z1.4 F720
G1 E.8 F1500
M204 P700
M73 P24 R1
G1 F900
G1 X82.049 Y23.334 E.01461
G1 X82.049 Y15.45 E.23792
G1 X82.533 Y15.45 E.01461
G1 X82.533 Y23.274 E.23611
M204 P1000
G1 X82.182 Y23.141 F12000
; stop printing object toggle switch.stl id:0 copy 0
;LAYER_CHANGE
;Z:1.5
;HEIGHT:0.1
;BEFORE_LAYER_CHANGE
G92 E0.0
;1.5


G1 E-.64 F2100
;WIPE_START
G1 F9600
G1 X82.049 Y23.334 E-.10135
G1 X82.049 Y23.052 E-.05865
;WIPE_END
G1 Z1.6 F720
;AFTER_LAYER_CHANGE
;1.5
; printing object toggle switch.stl id:0 copy 0
G1 X80.829 Y23.424 F12000
G1 Z1.5 F720
G1 E.8 F1500
;TYPE:Support material interface
;WIDTH:0.37
;HEIGHT:0.26
M73 P25 R1
G1 F900
G1 X80.459 Y23.424 E.01257
G1 X80.459 Y22.885 E.01831
G1 X80.998 Y23.424 E.02589
G1 X81.262 Y23.424 E.00897
G1 X81.262 Y22.927 E.01688
G1 X80.459 Y22.125 E.03855
G1 X80.459 Y21.364 E.02585
G1 X81.262 Y22.166 E.03855
G1 X81.262 Y21.406 E.02581
G1 X80.46 Y20.604 E.03852
G1 X80.46 Y19.843 E.02585
G1 X81.262 Y20.645 E.03852
G1 X81.262 Y19.885 E.02581
G1 X80.459 Y19.082 E.03857
G1 X80.459 Y18.361 E.02449
G1 X80.499 Y18.361 E.00136
G1 X81.262 Y19.124 E.03665
G1 X81.259 Y18.361 E.02591
G1 E-.64 F2100
;WIPE_START
G1 F9600
G1 X81.262 Y19.124 E-.15856
G1 X81.257 Y19.119 E-.00144
;WIPE_END
G1 Z1.7 F720
G1 X83.98 Y19.56 F12000
G1 Z1.5 F720
G1 E.8 F1500
G1 F900
G1 X84.122 Y19.702 E.00682
G1 X84.122 Y20.463 E.02585
G1 X83.32 Y19.661 E.03852
G1 X83.32 Y20.421 E.02581
G1 X84.122 Y21.224 E.03855
M73 P26 R1
G1 X84.122 Y21.984 E.02581
G1 X83.32 Y21.182 E.03852
G1 X83.32 Y21.942 E.02581
G1 X83.6 Y22.223 E.01347
G1 X83.32 Y22.223 E.00951
G1 X83.32 Y22.111 E.0038
; stop printing object toggle switch.stl id:0 copy 0
;LAYER_CHANGE
;Z:1.55
;HEIGHT:0.05
;BEFORE_LAYER_CHANGE
G92 E0.0
;1.55


G1 E-.64 F2100
;WIPE_START
G1 F9600
G1 X83.32 Y22.223 E-.02327
G1 X83.6 Y22.223 E-.05819
G1 X83.333 Y21.955 E-.07854
;WIPE_END
G1 Z1.7 F720
;AFTER_LAYER_CHANGE
;1.55
; printing object toggle switch.stl id:0 copy 0
G1 X82.533 Y23.334 F12000
G1 Z1.55 F720
G1 E.8 F1500
M204 P700
;TYPE:External perimeter
;WIDTH:0.516092
;HEIGHT:0.15
G1 F900
G1 X82.049 Y23.334 E.01461
G1 X82.049 Y15.45 E.23792
G1 X82.533 Y15.45 E.01461
G1 X82.533 Y23.274 E.23611
M204 P1000
G1 X82.182 Y23.141 F12000
; stop printing object toggle switch.stl id:0 copy 0
;LAYER_CHANGE
;Z:1.7
;HEIGHT:0.15
;BEFORE_LAYER_CHANGE
G92 E0.0
;1.7


G1 E-.64 F2100
;WIPE_START
G1 F9600
G1 X82.049 Y23.334 E-.10135
G1 X82.049 Y23.052 E-.05865
;WIPE_END
G1 Z1.75 F720
;AFTER_LAYER_CHANGE
;1.7
; printing object toggle switch.stl id:0 copy 0
G1 X82.533 Y23.334 F12000
M73 P27 R1
G1 Z1.7 F720
