; generated by PrusaSlicer 2.6.0+win64 on 2023-08-15 at 19:02:11 UTC


;
;
; 

; external perimeters extrusion width = 0.45mm
; perimeters extrusion width = 0.45mm
; infill extrusion width = 0.45mm
; solid infill extrusion width = 0.45mm
; top infill extrusion width = 0.40mm
; support material extrusion width = 0.35mm
; first layer extrusion width = 0.42mm

M73 P0 R3
M73 Q0 S3
M201 X1000 Y1000 Z200 E5000 ; sets maximum accelerations, mm/sec^2
M203 X200 Y200 Z12 E120 ; sets maximum feedrates, mm / sec
M204 S1250 T1250 ; sets acceleration (S) and retract acceleration (R), mm/sec^2
M205 X8.00 Y8.00 Z0.40 E4.50 ; sets the jerk limits, mm/sec
M205 S0 T0 ; sets the minimum extruding and travel feed rate, mm/sec
;TYPE:Custom
M862.3 P "MK3S" ; printer model check
M862.1 P0.4 ; nozzle diameter check
M115 U3.12.2 ; tell printer latest fw version
G90 ; use absolute coordinates
M83 ; extruder relative mode
M104 S215 ; set extruder temp
M140 S60 ; set bed temp
M190 S60 ; wait for bed temp
M109 S215 ; wait for extruder temp
G28 W ; home all without mesh bed level
G80 ; mesh bed leveling

G1 Z0.2 F720
G1 Y-3 F1000 ; go outside print area
G92 E0
G1 X60 E9 F1000 ; intro line
G1 X100 E12.5 F1000 ; intro line

G92 E0
M221 S95

; Don't change E values below. Excessive value can damage the printer.
M907 E430 ; set extruder motor current
G21 ; set units to millimeters
G90 ; use absolute coordinates
M83 ; use relative distances for extrusion
M900 K0.05 ; Filament gcode LA 1.5
M900 K30 ; Filament gcode LA 1.0
M107
;LAYER_CHANGE
;Z:0.2
;HEIGHT:0.2
;BEFORE_LAYER_CHANGE
G92 E0.0
;0.2


M73 P1 R3
M73 Q1 S3
G1 E-.8 F2100
M73 P2 R3
M73 Q2 S3
G1 Z.4 F720
;AFTER_LAYER_CHANGE
;0.2
G1 X71.952 Y14.126 F10800
G1 Z.2 F720
G1 E.8 F2100
M204 S800
;TYPE:Skirt/Brim
;WIDTH:0.42
G1 F1200
G1 X72.345 Y12.708 E.04614
G1 X73.411 Y11.695 E.04611
G1 X74.706 Y11.372 E.04185
G1 X89.875 Y11.372 E.47561
G1 X91.293 Y11.764 E.04613
M73 P3 R3
M73 Q3 S3
G1 X92.306 Y12.831 E.04613
G1 X92.629 Y14.126 E.04185
G1 X92.629 Y26.977 E.40293
G1 X92.237 Y28.394 E.0461
G1 X91.17 Y29.407 E.04613
G1 X89.875 Y29.731 E.04186
G1 X74.706 Y29.731 E.47561
G1 X73.289 Y29.338 E.04611
M73 P4 R3
M73 Q4 S3
G1 X72.276 Y28.272 E.04611
G1 X71.952 Y26.977 E.04186
G1 X71.952 Y14.186 E.40105
M204 S1000
G1 X72.329 Y14.186 F10800
M204 S800
G1 F1200
G1 X72.329 Y14.126 E.00188
G1 X72.721 Y12.819 E.04278
G1 X73.766 Y11.942 E.04277
G1 X74.706 Y11.749 E.03009
G1 X89.875 Y11.749 E.47561
G1 X91.182 Y12.14 E.04277
G1 X92.059 Y13.186 E.0428
G1 X92.252 Y14.126 E.03009
G1 X92.252 Y26.977 E.40293
G1 X91.861 Y28.284 E.04277
M73 P5 R3
M73 Q5 S3
G1 X90.815 Y29.16 E.04278
G1 X89.875 Y29.354 E.03009
G1 X74.706 Y29.354 E.47561
G1 X73.399 Y28.962 E.04278
G1 X72.523 Y27.917 E.04275
G1 X72.329 Y26.977 E.03009
G1 X72.329 Y14.246 E.39917
M204 S1000
; printing object plusplus toggle switch.stl id:0 copy 0
;WIPE_START
G1 F8640
G1 X72.329 Y14.126 E-.02771
G1 X72.721 Y12.819 E-.31507
G1 X73.766 Y11.942 E-.31501
G1 X74.369 Y11.818 E-.14221
;WIPE_END
G1 Z.6 F720
G1 X89.875 Y26.977 F10800
M73 P6 R3
M73 Q6 S3
G1 Z.2 F720
G1 E.8 F2100
M204 S800
;TYPE:Support material
G1 F1200
G1 X74.706 Y26.977 E.47561
G1 X74.706 Y14.126 E.40293
G1 X89.875 Y14.126 E.47561
G1 X89.875 Y26.92 E.40115
M204 S1000
;WIPE_START
M73 P7 R3
M73 Q7 S3
G1 F8640
G1 X89.875 Y23.455 E-.8
;WIPE_END
G1 Z.6 F720
G1 X82.342 Y14.712 F10800
G1 Z.2 F720
G1 E.8 F2100
M204 S800
G1 F1200
G1 X83.739 Y14.712 E.0438
G1 X84.021 Y14.994 E.0125
G1 X84.021 Y23.791 E.27582
G1 X83.739 Y24.072 E.01248
G1 X82.342 Y24.072 E.0438
G1 X82.061 Y23.791 E.01246
G1 X82.061 Y14.994 E.27582
G1 X82.302 Y14.752 E.01071
M204 S1000
;WIPE_START
M73 P8 R3
M73 Q8 S3
G1 F8640
G1 X82.061 Y14.994 E-.07886
G1 X82.061 Y18.117 E-.72114
;WIPE_END
G1 Z.6 F720
G1 X82.891 Y19.098 F10800
G1 X83.191 Y15.98
G1 X83.191 Y19.452
G1 X89.413 Y26.807
G1 Z.2 F720
G1 E.8 F2100
M204 S800
G1 F1200
G1 X89.413 Y14.465 E.38697
G1 X88.994 Y14.465 E.01314
G1 X88.994 Y26.637 E.38164
G1 X88.575 Y26.637 E.01314
G1 X88.575 Y14.465 E.38164
G1 X88.156 Y14.465 E.01314
M73 P9 R3
M73 Q9 S3
G1 X88.156 Y26.637 E.38164
G1 X87.737 Y26.637 E.01314
G1 X87.737 Y14.465 E.38164
G1 X87.318 Y14.465 E.01314
G1 X87.318 Y26.637 E.38164
G1 X86.899 Y26.637 E.01314
M73 P10 R3
M73 Q10 S3
G1 X86.899 Y14.465 E.38164
G1 X86.48 Y14.465 E.01314
G1 X86.48 Y26.637 E.38164
G1 X86.061 Y26.637 E.01314
G1 X86.061 Y14.465 E.38164
G1 X85.642 Y14.465 E.01314
G1 X85.642 Y26.637 E.38164
G1 X85.223 Y26.637 E.01314
M73 P11 R3
M73 Q11 S3
G1 X85.223 Y14.465 E.38164
G1 X84.805 Y14.465 E.01311
G1 X84.805 Y26.637 E.38164
G1 X84.386 Y26.637 E.01314
G1 X84.386 Y14.465 E.38164
G1 X83.972 Y14.465 E.01298
G1 X84.36 Y14.853 E.0172
G1 X84.36 Y23.932 E.28467
G1 X83.967 Y24.325 E.01743
M73 P12 R3
M73 Q12 S3
G1 X83.967 Y26.637 E.07249
G1 X83.548 Y26.637 E.01314
G1 X83.548 Y24.412 E.06976
G1 X83.129 Y24.412 E.01314
G1 X83.129 Y26.637 E.06976
G1 X82.71 Y26.637 E.01314
G1 X82.71 Y24.412 E.06976
G1 X82.291 Y24.412 E.01314
G1 X82.291 Y26.637 E.06976
G1 X81.872 Y26.637 E.01314
G1 X81.872 Y14.465 E.38164
G1 X81.453 Y14.465 E.01314
G1 X81.453 Y26.637 E.38164
G1 X81.034 Y26.637 E.01314
M73 P13 R3
M73 Q13 S3
G1 X81.034 Y14.465 E.38164
G1 X80.615 Y14.465 E.01314
G1 X80.615 Y26.637 E.38164
G1 X80.196 Y26.637 E.01314
G1 X80.196 Y14.465 E.38164
G1 X79.777 Y14.465 E.01314
G1 X79.777 Y26.637 E.38164
G1 X79.358 Y26.637 E.01314
M73 P14 R3
M73 Q14 S3
G1 X79.358 Y14.465 E.38164
G1 X78.939 Y14.465 E.01314
G1 X78.939 Y26.637 E.38164
G1 X78.52 Y26.637 E.01314
G1 X78.52 Y14.465 E.38164
G1 X78.101 Y14.465 E.01314
G1 X78.101 Y26.637 E.38164
G1 X77.682 Y26.637 E.01314
M73 P15 R3
M73 Q15 S3
G1 X77.682 Y14.465 E.38164
G1 X77.263 Y14.465 E.01314
G1 X77.263 Y26.637 E.38164
G1 X76.844 Y26.637 E.01314
G1 X76.844 Y14.465 E.38164
G1 X76.425 Y14.465 E.01314
M73 P16 R3
M73 Q16 S3
G1 X76.425 Y26.637 E.38164
G1 X76.006 Y26.637 E.01314
G1 X76.006 Y14.465 E.38164
G1 X75.587 Y14.465 E.01314
G1 X75.587 Y26.637 E.38164
G1 X75.168 Y26.637 E.01314
G1 X75.168 Y14.295 E.38697
M204 S1000
;WIPE_START
G1 F8640
M73 P17 R3
M73 Q17 S3
G1 X75.168 Y17.76 E-.8
;WIPE_END
G1 Z.6 F720
G1 X83.28 Y23.332 F10800
G1 Z.2 F720
G1 E.8 F2100
M204 S800
;TYPE:External perimeter
;WIDTH:0.521457
G1 F1200
G1 X82.801 Y23.332 E.01906
G1 X82.801 Y15.453 E.31351
G1 X83.28 Y15.453 E.01906
G1 X83.28 Y23.272 E.31112
M204 S1000
G1 X82.93 Y23.139 F10800
; stop printing object plusplus toggle switch.stl id:0 copy 0
M106 S84.15
;LAYER_CHANGE
;Z:0.35
;HEIGHT:0.15
;BEFORE_LAYER_CHANGE
G92 E0.0
;0.35


;WIPE_START
G1 F8640
G1 X82.801 Y23.332 E-.11147
G1 X82.801 Y20.35 E-.68853
;WIPE_END
G1 Z.6 F720
;AFTER_LAYER_CHANGE
;0.35
G1 X82.801 Y11.372 F10800
G1 Z.35 F720
G1 E.8 F2100
;TYPE:Skirt/Brim
;WIDTH:0.42
G1 F1006
G1 X89.875 Y11.372 E.17108
G1 X91.293 Y11.764 E.03558
M73 P18 R3
M73 Q18 S3
G1 X92.306 Y12.831 E.03558
G1 X92.629 Y14.126 E.03228
G1 X92.629 Y26.977 E.3108
G1 X92.237 Y28.394 E.03556
G1 X91.17 Y29.407 E.03558
G1 X89.875 Y29.731 E.03228
G1 X74.706 Y29.731 E.36686
G1 X73.289 Y29.338 E.03556
M73 P19 R3
M73 Q19 S3
G1 X72.276 Y28.272 E.03557
G1 X71.952 Y26.977 E.03228
G1 X71.952 Y14.126 E.3108
G1 X72.345 Y12.708 E.03559
G1 X73.411 Y11.695 E.03557
G1 X74.706 Y11.372 E.03228
G1 X82.741 Y11.372 E.19433
G1 X82.741 Y11.749 F10800
G1 F1006
G1 X89.875 Y11.749 E.17253
G1 X91.182 Y12.14 E.03299
G1 X92.059 Y13.186 E.03301
G1 X92.252 Y14.126 E.02321
M73 P20 R3
M73 Q20 S3
G1 X92.252 Y26.977 E.3108
G1 X91.861 Y28.284 E.03299
G1 X90.815 Y29.16 E.033
G1 X89.875 Y29.354 E.02321
G1 X74.706 Y29.354 E.36686
G1 X73.399 Y28.962 E.033
G1 X72.523 Y27.917 E.03298
G1 X72.329 Y26.977 E.02321
G1 X72.329 Y14.126 E.3108
G1 X72.721 Y12.819 E.033
M73 P21 R3
M73 Q21 S3
G1 X73.766 Y11.942 E.03299
G1 X74.706 Y11.749 E.02321
G1 X82.681 Y11.749 E.19287
; printing object plusplus toggle switch.stl id:0 copy 0
;WIPE_START
G1 F8640
G1 X86.146 Y11.749 E-.8
;WIPE_END
G1 Z.75 F720
G1 X83.283 Y23.334 F10800
G1 Z.35 F720
G1 E.8 F2100
M204 S800
;TYPE:External perimeter
;WIDTH:0.516092
G1 F1006
G1 X82.799 Y23.334 E.01461
G1 X82.799 Y15.45 E.23792
G1 X83.283 Y15.45 E.01461
G1 X83.283 Y23.274 E.23611
M204 S1000
M73 Q22 S3
G1 X82.932 Y23.141 F10800
; stop printing object plusplus toggle switch.stl id:0 copy 0
M106 S170.85
;LAYER_CHANGE
;Z:0.416667
;HEIGHT:0.0666667
;BEFORE_LAYER_CHANGE
G92 E0.0
;0.416667


;WIPE_START
M73 P22 R3
G1 F8640
G1 X82.799 Y23.334 E-.11261
G1 X82.799 Y20.357 E-.68739
;WIPE_END
G1 Z.75 F720
;AFTER_LAYER_CHANGE
;0.416667
; printing object plusplus toggle switch.stl id:0 copy 0
G1 X82.115 Y23.774 F10800
G1 Z.417 F720
G1 E.8 F2100
;TYPE:Support material
;WIDTH:0.35
;HEIGHT:0.216667
G1 F1324
G1 X82.112 Y21.71 E.05643
G1 X77.655 Y21.71 E.12185
G1 X77.655 Y19.392 E.06337
G1 X82.112 Y19.392 E.12185
G1 X82.112 Y17.075 E.06335
G1 X77.655 Y17.075 E.12185
G1 X77.655 Y21.869 F10800
G1 F1324
G1 X77.655 Y24.028 E.05903
G1 X86.926 Y24.028 E.25346
G1 X86.926 Y21.71 E.06337
M73 P23 R3
M73 Q23 S3
G1 X83.97 Y21.71 E.08082
G1 X83.97 Y19.392 E.06337
G1 X86.926 Y19.392 E.08082
G1 X86.926 Y17.075 E.06335
G1 X83.97 Y17.075 E.08082
; stop printing object plusplus toggle switch.stl id:0 copy 0
;LAYER_CHANGE
;Z:0.5
;HEIGHT:0.0833333
;BEFORE_LAYER_CHANGE
G92 E0.0
;0.5


;WIPE_START
G1 F8640
G1 X86.926 Y17.075 E-.68255
G1 X86.926 Y17.584 E-.11745
;WIPE_END
G1 Z.817 F720
;AFTER_LAYER_CHANGE
;0.5
G1 X92.629 Y17.584 F10800
G1 Z.5 F720
G1 E.8 F2100
;TYPE:Skirt/Brim
;WIDTH:0.42
;HEIGHT:0.15
G1 F1324
G1 X92.629 Y26.977 E.22717
G1 X92.237 Y28.394 E.03556
G1 X91.17 Y29.407 E.03558
G1 X89.875 Y29.731 E.03228
G1 X74.706 Y29.731 E.36686
G1 X73.289 Y29.338 E.03556
M73 P24 R3
M73 Q24 S3
G1 X72.276 Y28.272 E.03557
M73 P24 R2
G1 X71.952 Y26.977 E.03228
G1 X71.952 Y14.126 E.3108
M73 Q24 S2
G1 X72.345 Y12.708 E.03559
G1 X73.411 Y11.695 E.03557
G1 X74.706 Y11.372 E.03228
G1 X89.875 Y11.372 E.36686
G1 X91.293 Y11.764 E.03558
G1 X92.306 Y12.831 E.03558
G1 X92.629 Y14.126 E.03228
G1 X92.629 Y17.524 E.08218
G1 X92.252 Y17.524 F10800
G1 F1324
M73 Q25 S2
G1 X92.252 Y26.977 E.22862
G1 X91.861 Y28.284 E.03299
M73 P25 R2
G1 X90.815 Y29.16 E.033
G1 X89.875 Y29.354 E.02321
G1 X74.706 Y29.354 E.36686
G1 X73.399 Y28.962 E.033
G1 X72.523 Y27.917 E.03298
G1 X72.329 Y26.977 E.02321
G1 X72.329 Y14.126 E.3108
G1 X72.721 Y12.819 E.033
G1 X73.766 Y11.942 E.03299
G1 X74.706 Y11.749 E.02321
G1 X89.875 Y11.749 E.36686
G1 X91.182 Y12.14 E.03299
M73 P26 R2
M73 Q26 S2
G1 X92.059 Y13.186 E.03301
G1 X92.252 Y14.126 E.02321
G1 X92.252 Y17.464 E.08073
; printing object plusplus toggle switch.stl id:0 copy 0
G1 E-.8 F2100
G1 Z.9 F720
G1 X83.283 Y23.334 F10800
G1 Z.5 F720
G1 E.8 F2100
M204 S800
;TYPE:External perimeter
;WIDTH:0.516092
G1 F1324
G1 X82.799 Y23.334 E.01461
G1 X82.799 Y15.45 E.23792
G1 X83.283 Y15.45 E.01461
G1 X83.283 Y23.274 E.23611
M204 S1000
G1 X82.932 Y23.141 F10800
; stop printing object plusplus toggle switch.stl id:0 copy 0
M106 S255
;LAYER_CHANGE
;Z:0.633333
;HEIGHT:0.133333
;BEFORE_LAYER_CHANGE
G92 E0.0
;0.633333


;WIPE_START
G1 F8640
G1 X82.799 Y23.334 E-.11261
G1 X82.799 Y20.357 E-.68739
;WIPE_END
G1 Z.9 F720
;AFTER_LAYER_CHANGE
;0.633333
; printing object plusplus toggle switch.stl id:0 copy 0
G1 X82.115 Y23.774 F10800
G1 Z.633 F720
M73 P27 R2
M73 Q27 S2
G1 E.8 F2100
;TYPE:Support material
;WIDTH:0.35
;HEIGHT:0.216667
G1 F900
G1 X82.112 Y21.71 E.05643
G1 X77.655 Y21.71 E.12185
G1 X77.655 Y19.392 E.06337
G1 X82.112 Y19.392 E.12185
G1 X82.112 Y17.075 E.06335
G1 X77.655 Y17.075 E.12185
G1 X77.655 Y21.869 F10800
G1 F900
G1 X77.655 Y24.028 E.05903
G1 X86.926 Y24.028 E.25346
G1 X86.926 Y21.71 E.06337
M73 Q28 S2
G1 X83.97 Y21.71 E.08082
M73 P28 R2
G1 X83.97 Y19.392 E.06337
G1 X86.926 Y19.392 E.08082
G1 X86.926 Y17.075 E.06335
G1 X83.97 Y17.075 E.08082
; stop printing object plusplus toggle switch.stl id:0 copy 0
;LAYER_CHANGE
;Z:0.65
;HEIGHT:0.0166667
;BEFORE_LAYER_CHANGE
G92 E0.0
;0.65


;WIPE_START
G1 F8640
G1 X86.926 Y17.075 E-.68255
G1 X86.926 Y17.584 E-.11745
;WIPE_END
G1 Z1.033 F720
;AFTER_LAYER_CHANGE
;0.65
; printing object plusplus toggle switch.stl id:0 copy 0
G1 X83.283 Y23.334 F10800
G1 Z.65 F720
G1 E.8 F2100
M204 S800
;TYPE:External perimeter
;WIDTH:0.516092
;HEIGHT:0.15
G1 F900
G1 X82.799 Y23.334 E.01461
G1 X82.799 Y15.45 E.23792
G1 X83.283 Y15.45 E.01461
G1 X83.283 Y23.274 E.23611
M204 S1000
G1 X82.932 Y23.141 F10800
; stop printing object plusplus toggle switch.stl id:0 copy 0
;LAYER_CHANGE
;Z:0.8
;HEIGHT:0.15
;BEFORE_LAYER_CHANGE
G92 E0.0
;0.8


;WIPE_START
M73 P29 R2
M73 Q29 S2
G1 F8640
G1 X82.799 Y23.334 E-.11261
G1 X82.799 Y20.357 E-.68739
;WIPE_END
G1 Z1.05 F720
;AFTER_LAYER_CHANGE
;0.8
; printing object plusplus toggle switch.stl id:0 copy 0
G1 X83.283 Y23.334 F10800
G1 Z.8 F720
G1 E.8 F2100
M204 S800
G1 F900
G1 X82.799 Y23.334 E.01461
G1 X82.799 Y15.45 E.23792
G1 X83.283 Y15.45 E.01461
G1 X83.283 Y23.274 E.23611
M204 S1000
G1 X82.932 Y23.141 F10800
; stop printing object plusplus toggle switch.stl id:0 copy 0
;LAYER_CHANGE
;Z:0.85
;HEIGHT:0.05
;BEFORE_LAYER_CHANGE
G92 E0.0
;0.85


;WIPE_START
G1 F8640
G1 X82.799 Y23.334 E-.11261
G1 X82.799 Y20.357 E-.68739
;WIPE_END
G1 Z1.2 F720
;AFTER_LAYER_CHANGE
;0.85
; printing object plusplus toggle switch.stl id:0 copy 0
G1 X82.115 Y23.774 F10800
G1 Z.85 F720
G1 E.8 F2100
;TYPE:Support material
;WIDTH:0.35
;HEIGHT:0.216667
G1 F900
G1 X82.112 Y21.71 E.05643
G1 X77.655 Y21.71 E.12185
M73 P30 R2
M73 Q30 S2
G1 X77.655 Y19.392 E.06337
G1 X82.112 Y19.392 E.12185
G1 X82.112 Y17.075 E.06335
G1 X77.655 Y17.075 E.12185
G1 X77.655 Y21.869 F10800
G1 F900
G1 X77.655 Y24.028 E.05903
G1 X86.926 Y24.028 E.25346
G1 X86.926 Y21.71 E.06337
G1 X83.97 Y21.71 E.08082
G1 X83.97 Y19.392 E.06337
M73 P31 R2
M73 Q31 S2
G1 X86.926 Y19.392 E.08082
G1 X86.926 Y17.075 E.06335
G1 X83.97 Y17.075 E.08082
; stop printing object plusplus toggle switch.stl id:0 copy 0
;LAYER_CHANGE
;Z:0.95
;HEIGHT:0.1
;BEFORE_LAYER_CHANGE
G92 E0.0
;0.95


;WIPE_START
G1 F8640
G1 X86.926 Y17.075 E-.68255
G1 X86.926 Y17.584 E-.11745
;WIPE_END
G1 Z1.25 F720
;AFTER_LAYER_CHANGE
;0.95
; printing object plusplus toggle switch.stl id:0 copy 0
G1 X83.283 Y23.334 F10800
G1 Z.95 F720
G1 E.8 F2100
M204 S800
;TYPE:External perimeter
;WIDTH:0.516092
;HEIGHT:0.15
G1 F900
G1 X82.799 Y23.334 E.01461
G1 X82.799 Y15.45 E.23792
G1 X83.283 Y15.45 E.01461
G1 X83.283 Y23.274 E.23611
M204 S1000
G1 X82.932 Y23.141 F10800
; stop printing object plusplus toggle switch.stl id:0 copy 0
;LAYER_CHANGE
;Z:1.06667
;HEIGHT:0.116667
;BEFORE_LAYER_CHANGE
G92 E0.0
;1.06667


;WIPE_START
M73 P32 R2
M73 Q32 S2
G1 F8640
G1 X82.799 Y23.334 E-.11261
G1 X82.799 Y20.357 E-.68739
;WIPE_END
G1 Z1.35 F720
;AFTER_LAYER_CHANGE
;1.06667
; printing object plusplus toggle switch.stl id:0 copy 0
G1 X82.115 Y23.774 F10800
G1 Z1.067 F720
G1 E.8 F2100
;TYPE:Support material
;WIDTH:0.35
;HEIGHT:0.216667
G1 F900
G1 X82.112 Y21.71 E.05643
G1 X77.655 Y21.71 E.12185
G1 X77.655 Y19.392 E.06337
G1 X82.112 Y19.392 E.12185
G1 X82.112 Y17.075 E.06335
G1 X77.655 Y17.075 E.12185
G1 X77.655 Y21.869 F10800
G1 F900
G1 X77.655 Y24.028 E.05903
G1 X86.926 Y24.028 E.25346
G1 X86.926 Y21.71 E.06337
M73 P33 R2
M73 Q33 S2
G1 X83.97 Y21.71 E.08082
G1 X83.97 Y19.392 E.06337
G1 X86.926 Y19.392 E.08082
G1 X86.926 Y17.075 E.06335
G1 X83.97 Y17.075 E.08082
; stop printing object plusplus toggle switch.stl id:0 copy 0
;LAYER_CHANGE
;Z:1.1
;HEIGHT:0.0333333
;BEFORE_LAYER_CHANGE
G92 E0.0
;1.1


;WIPE_START
G1 F8640
G1 X86.926 Y17.075 E-.68255
G1 X86.926 Y17.584 E-.11745
;WIPE_END
G1 Z1.467 F720
;AFTER_LAYER_CHANGE
;1.1
; printing object plusplus toggle switch.stl id:0 copy 0
G1 X83.283 Y23.334 F10800
G1 Z1.1 F720
G1 E.8 F2100
M204 S800
;TYPE:External perimeter
;WIDTH:0.516092
;HEIGHT:0.15
G1 F900
G1 X82.799 Y23.334 E.01461
G1 X82.799 Y15.45 E.23792
G1 X83.283 Y15.45 E.01461
M73 P34 R2
M73 Q34 S2
G1 X83.283 Y23.274 E.23611
M204 S1000
G1 X82.932 Y23.141 F10800
; stop printing object plusplus toggle switch.stl id:0 copy 0
;LAYER_CHANGE
;Z:1.25
;HEIGHT:0.15
;BEFORE_LAYER_CHANGE
G92 E0.0
;1.25


;WIPE_START
G1 F8640
G1 X82.799 Y23.334 E-.11261
G1 X82.799 Y20.357 E-.68739
;WIPE_END
G1 Z1.5 F720
