; generated by PrusaSlicer 2.6.1+win64 on 2023-10-08 at 05:04:08 UTC


;
;

;
;

;
;

;
;
; 

; external perimeters extrusion width = 0.45mm
; perimeters extrusion width = 0.45mm
; infill extrusion width = 0.45mm
; solid infill extrusion width = 0.45mm
; top infill extrusion width = 0.40mm
; support material extrusion width = 0.37mm
; first layer extrusion width = 0.50mm

M73 P0 R38
M201 X2500 Y2500 Z200 E2500 ; sets maximum accelerations, mm/sec^2
M203 X200 Y200 Z40 E100 ; sets maximum feedrates, mm / sec
M204 P2000 R1200 T2000 ; sets acceleration (P, T) and retract acceleration (R), mm/sec^2
M205 X8.00 Y8.00 Z2.00 E10.00 ; sets the jerk limits, mm/sec
M205 S0 T0 ; sets the minimum extruding and travel feed rate, mm/sec
;TYPE:Custom
M17 ; enable steppers
M862.3 P "MK4" ; printer model check
M862.1 P0.4 ; nozzle diameter check
M555 X90.9031 Y8.65971 W74 H14.0339

G90 ; use absolute coordinates
M83 ; extruder relative mode

M140 S60 ; set bed temp
M104 T0 S170 ; set extruder temp for bed leveling
M109 T0 R170 ; wait for temp

M84 E ; turn off E motor

G28 ; home all without mesh bed level

G1 X42 Y-4 Z5 F4800

M302 S160 ; lower cold extrusion limit to 160C


G1 E-2 F2400 ; retraction


M84 E ; turn off E motor

G29 P9 X10 Y-4 W32 H4

M106 S100

G0 Z40 F10000

M190 S60 ; wait for bed temp

M107

;
; MBL
;
M84 E ; turn off E motor
G29 P1 ; invalidate mbl & probe print area
G29 P1 X0 Y0 W50 H20 C ; probe near purge place
G29 P3.2 ; interpolate mbl probes
G29 P3.13 ; extrapolate mbl outside probe area
G29 A ; activate mbl

; prepare for purge
M104 S215
G0 X0 Y-4 Z15 F4800 ; move away and ready for the purge
M109 S215

G92 E0
M569 S0 E ; set spreadcycle mode for extruder

;
; Extrude purge line
;
G92 E0 ; reset extruder position
G1 E2 F2400 ; deretraction after the initial one before nozzle cleaning
G0 E7 X15 Z0.2 F500 ; purge
G0 X25 E4 F500 ; purge
G0 X35 E4 F650 ; purge
G0 X45 E4 F800 ; purge
G0 X48 Z0.05 F8000 ; wipe, move close to the bed
G0 X51 Z0.2 F8000 ; wipe, move quickly away from the bed

G92 E0
M221 S100 ; set flow to 100%
G21 ; set units to millimeters
G90 ; use absolute coordinates
M83 ; use relative distances for extrusion
M900 K0.05 ; Filament gcode



M142 S36 ; set heatbreak target temp
M107
;LAYER_CHANGE
;Z:0.2
;HEIGHT:0.2
;BEFORE_LAYER_CHANGE
G92 E0.0
;0.2


G1 E-1 F2100
G1 Z.2 F720
;AFTER_LAYER_CHANGE
;0.2
; printing object battery arm.stl id:0 copy 0
G1 Z.4
G1 X98.529 Y15.364 F12000
G1 Z.2 F720
G1 E1 F1500
M204 P600
;TYPE:Perimeter
;WIDTH:0.499999
G1 F1200
G1 X98.496 Y15.472 E.00429
G1 X98.496 Y21.787 E.24001
G1 X91.81 Y21.787 E.25411
G1 X91.81 Y18.601 E.12109
G1 X96.125 Y18.601 E.164
G1 X96.243 Y18.59 E.0045
G1 X96.55 Y18.453 E.01278
G1 X96.734 Y18.229 E.01102
G1 X96.81 Y17.915 E.01228
G1 X96.81 Y13.567 E.16525
G1 X158.996 Y13.567 E2.36346
M73 P0 R37
G1 X158.996 Y17.881 E.16396
G1 X159.072 Y18.195 E.01228
G1 X159.257 Y18.419 E.01104
G1 X159.47 Y18.533 E.00918
G1 X159.682 Y18.567 E.00816
G1 X163.996 Y18.567 E.16396
G1 X163.996 Y21.753 E.12109
G1 X157.31 Y21.753 E.25411
G1 X157.31 Y15.472 E.23872
G1 X157.196 Y15.093 E.01504
G1 X156.968 Y14.879 E.01188
G1 X156.625 Y14.787 E.0135
G1 X99.182 Y14.787 E2.18319
G1 X98.839 Y14.879 E.0135
G1 X98.611 Y15.093 E.01188
G1 X98.546 Y15.306 E.00846
M204 P1000
G1 X98.953 Y15.472 F12000
M204 P600
;TYPE:External perimeter
G1 F1200
G1 X98.953 Y22.244 E.25738
G1 X91.353 Y22.244 E.28885
G1 X91.353 Y18.144 E.15583
G1 X96.125 Y18.144 E.18137
G1 X96.195 Y18.132 E.0027
G1 X96.328 Y18.02 E.00661
G1 X96.353 Y17.915 E.0041
G1 X96.353 Y13.11 E.18262
G1 X159.453 Y13.11 E2.3982
G1 X159.457 Y17.921 E.18285
G1 X159.54 Y18.061 E.00619
G1 X159.682 Y18.11 E.00571
G1 X164.453 Y18.11 E.18133
G1 X164.453 Y22.21 E.15583
G1 X156.853 Y22.21 E.28885
G1 X156.853 Y15.472 E.25609
G1 X156.815 Y15.346 E.005
G1 X156.739 Y15.274 E.00398
G1 X156.625 Y15.244 E.00448
G1 X99.182 Y15.244 E2.18319
G1 X99.142 Y15.247 E.00152
G1 X98.991 Y15.346 E.00686
M73 P1 R37
G1 X98.97 Y15.415 E.00274
M204 P1000
G1 X98.57 Y15.587 F12000
G1 E-.8 F2100
;WIPE_START
G1 F9600
G1 X98.968 Y16.377 E-.2
;WIPE_END
G1 Z.4 F720
G1 X98.717 Y16.377 F12000
G1 X98.717 Y15.008
G1 X157.089 Y15.008
G1 X157.089 Y21.974
G1 X164.217 Y21.974
G1 X164.217 Y19.701
G1 X163.79 Y19.701
G1 Z.2 F720
G1 E1 F1500
M204 P600
;TYPE:Solid infill
;WIDTH:0.502073
G1 F1200
G1 X163.068 Y18.978 E.03901
G1 X162.418 Y18.978 E.02482
G1 X163.585 Y20.145 E.06301
G1 X163.585 Y20.794 E.02478
G1 X161.769 Y18.978 E.09805
G1 X161.12 Y18.978 E.02478
G1 X163.483 Y21.341 E.12759
G1 X162.833 Y21.341 E.02482
G1 X160.265 Y18.772 E.13868
M204 P1000
G1 E-.8 F2100
;WIPE_START
G1 F9600
G1 X160.945 Y19.453 E-.2
;WIPE_END
G1 Z.4 F720
G1 X159.217 Y18.345 F12000
G1 X159.217 Y14.701
G1 X158.79 Y14.701
G1 Z.2 F720
G1 E1 F1500
M204 P600
G1 F1200
G1 X158.068 Y13.978 E.03901
G1 X157.418 Y13.978 E.02482
G1 X158.585 Y15.144 E.06298
G1 X158.585 Y15.794 E.02482
G1 X156.769 Y13.978 E.09805
G1 X156.12 Y13.978 E.02478
G1 X156.517 Y14.375 E.02144
G1 X156.649 Y14.375 E.00504
G1 X157.174 Y14.516 E.02075
G1 X157.547 Y14.867 E.01955
G1 X157.722 Y15.445 E.02306
G1 X157.722 Y15.58 E.00515
G1 X158.585 Y16.443 E.0466
G1 X158.585 Y17.093 E.02482
G1 X157.722 Y16.229 E.04662
G1 X157.722 Y16.879 E.02482
G1 X158.585 Y17.742 E.0466
G1 X158.601 Y18.077 E.0128
G1 X158.706 Y18.39 E.0126
G1 X158.997 Y18.743 E.01747
G1 X159.34 Y18.926 E.01484
G1 X159.667 Y18.978 E.01264
G1 X159.821 Y18.978 E.00588
G1 X162.184 Y21.341 E.12759
G1 X161.535 Y21.341 E.02478
G1 X157.722 Y17.528 E.20587
G1 X157.722 Y18.177 E.02478
G1 X160.885 Y21.341 E.17081
G1 X160.236 Y21.341 E.02478
G1 X157.722 Y18.827 E.13574
G1 X157.722 Y19.476 E.02478
G1 X159.587 Y21.341 E.1007
G1 X158.937 Y21.341 E.02482
G1 X157.722 Y20.125 E.06563
G1 X157.722 Y20.775 E.02482
G1 X158.494 Y21.547 E.04168
M204 P1000
G1 E-.8 F2100
;WIPE_START
G1 F9600
G1 X157.813 Y20.866 E-.2
;WIPE_END
G1 Z.4 F720
G1 X157.089 Y20.866 F12000
G1 X157.089 Y15.008
G1 X156.073 Y15.008
G1 X156.073 Y14.581
G1 Z.2 F720
G1 E1 F1500
M204 P600
G1 F1200
G1 X155.47 Y13.978 E.03256
G1 X154.821 Y13.978 E.02478
G1 X155.218 Y14.375 E.02144
G1 X154.569 Y14.375 E.02478
G1 X154.172 Y13.978 E.02144
G1 X153.522 Y13.978 E.02482
G1 X153.919 Y14.375 E.02144
G1 X153.27 Y14.375 E.02478
G1 X152.873 Y13.978 E.02144
G1 X152.224 Y13.978 E.02478
G1 X152.621 Y14.375 E.02144
G1 X151.971 Y14.375 E.02482
G1 X151.574 Y13.978 E.02144
G1 X150.925 Y13.978 E.02478
G1 X151.322 Y14.375 E.02144
G1 X150.673 Y14.375 E.02478
G1 X150.276 Y13.978 E.02144
G1 X149.626 Y13.978 E.02482
G1 X150.023 Y14.375 E.02144
G1 X149.374 Y14.375 E.02478
G1 X148.977 Y13.978 E.02144
G1 X148.328 Y13.978 E.02478
G1 X148.725 Y14.375 E.02144
G1 X148.075 Y14.375 E.02482
G1 X147.678 Y13.978 E.02144
G1 X147.029 Y13.978 E.02478
G1 X147.426 Y14.375 E.02144
G1 X146.777 Y14.375 E.02478
G1 X146.38 Y13.978 E.02144
G1 X145.73 Y13.978 E.02482
G1 X146.127 Y14.375 E.02144
G1 X145.478 Y14.375 E.02478
G1 X145.081 Y13.978 E.02144
G1 X144.432 Y13.978 E.02478
G1 X144.829 Y14.375 E.02144
G1 X144.179 Y14.375 E.02482
G1 X143.782 Y13.978 E.02144
G1 X143.133 Y13.978 E.02478
G1 X143.53 Y14.375 E.02144
G1 X142.881 Y14.375 E.02478
G1 X142.484 Y13.978 E.02144
G1 X141.834 Y13.978 E.02482
G1 X142.231 Y14.375 E.02144
G1 X141.582 Y14.375 E.02478
G1 X141.185 Y13.978 E.02144
G1 X140.536 Y13.978 E.02478
G1 X140.933 Y14.375 E.02144
G1 X140.283 Y14.375 E.02482
G1 X139.886 Y13.978 E.02144
G1 X139.237 Y13.978 E.02478
G1 X139.634 Y14.375 E.02144
G1 X138.985 Y14.375 E.02478
G1 X138.587 Y13.978 E.02146
G1 X137.938 Y13.978 E.02478
G1 X138.335 Y14.375 E.02144
G1 X137.686 Y14.375 E.02478
G1 X137.289 Y13.978 E.02144
G1 X136.639 Y13.978 E.02482
G1 X137.037 Y14.375 E.02146
G1 X136.387 Y14.375 E.02482
G1 X135.99 Y13.978 E.02144
G1 X135.341 Y13.978 E.02478
G1 X135.738 Y14.375 E.02144
G1 X135.088 Y14.375 E.02482
G1 X134.691 Y13.978 E.02144
G1 X134.042 Y13.978 E.02478
G1 X134.439 Y14.375 E.02144
G1 X133.79 Y14.375 E.02478
G1 X133.393 Y13.978 E.02144
G1 X132.743 Y13.978 E.02482
G1 X133.14 Y14.375 E.02144
G1 X132.491 Y14.375 E.02478
G1 X132.094 Y13.978 E.02144
G1 X131.445 Y13.978 E.02478
G1 X131.842 Y14.375 E.02144
G1 X131.192 Y14.375 E.02482
G1 X130.795 Y13.978 E.02144
G1 X130.146 Y13.978 E.02478
G1 X130.543 Y14.375 E.02144
G1 X129.894 Y14.375 E.02478
G1 X129.497 Y13.978 E.02144
G1 X128.847 Y13.978 E.02482
G1 X129.244 Y14.375 E.02144
G1 X128.595 Y14.375 E.02478
G1 X128.198 Y13.978 E.02144
G1 X127.549 Y13.978 E.02478
G1 X127.946 Y14.375 E.02144
G1 X127.296 Y14.375 E.02482
G1 X126.899 Y13.978 E.02144
G1 X126.25 Y13.978 E.02478
G1 X126.647 Y14.375 E.02144
G1 X125.998 Y14.375 E.02478
G1 X125.601 Y13.978 E.02144
G1 X124.951 Y13.978 E.02482
G1 X125.348 Y14.375 E.02144
G1 X124.699 Y14.375 E.02478
G1 X124.302 Y13.978 E.02144
G1 X123.653 Y13.978 E.02478
G1 X124.05 Y14.375 E.02144
G1 X123.4 Y14.375 E.02482
G1 X123.003 Y13.978 E.02144
G1 X122.354 Y13.978 E.02478
G1 X122.751 Y14.375 E.02144
G1 X122.102 Y14.375 E.02478
G1 X121.705 Y13.978 E.02144
G1 X121.055 Y13.978 E.02482
G1 X121.452 Y14.375 E.02144
G1 X120.803 Y14.375 E.02478
G1 X120.406 Y13.978 E.02144
G1 X119.757 Y13.978 E.02478
G1 X120.154 Y14.375 E.02144
G1 X119.504 Y14.375 E.02482
G1 X119.107 Y13.978 E.02144
G1 X118.458 Y13.978 E.02478
G1 X118.855 Y14.375 E.02144
G1 X118.206 Y14.375 E.02478
G1 X117.809 Y13.978 E.02144
G1 X117.159 Y13.978 E.02482
G1 X117.556 Y14.375 E.02144
G1 X116.907 Y14.375 E.02478
G1 X116.51 Y13.978 E.02144
G1 X115.861 Y13.978 E.02478
G1 X116.258 Y14.375 E.02144
G1 X115.608 Y14.375 E.02482
G1 X115.211 Y13.978 E.02144
G1 X114.562 Y13.978 E.02478
G1 X114.959 Y14.375 E.02144
G1 X114.31 Y14.375 E.02478
G1 X113.913 Y13.978 E.02144
G1 X113.263 Y13.978 E.02482
G1 X113.66 Y14.375 E.02144
G1 X113.011 Y14.375 E.02478
G1 X112.614 Y13.978 E.02144
G1 X111.965 Y13.978 E.02478
G1 X112.362 Y14.375 E.02144
G1 X111.712 Y14.375 E.02482
G1 X111.315 Y13.978 E.02144
G1 X110.666 Y13.978 E.02478
G1 X111.063 Y14.375 E.02144
G1 X110.414 Y14.375 E.02478
G1 X110.017 Y13.978 E.02144
G1 X109.367 Y13.978 E.02482
G1 X109.764 Y14.375 E.02144
G1 X109.115 Y14.375 E.02478
G1 X108.718 Y13.978 E.02144
G1 X108.068 Y13.978 E.02482
G1 X108.466 Y14.375 E.02146
G1 X107.816 Y14.375 E.02482
G1 X107.419 Y13.978 E.02144
G1 X106.77 Y13.978 E.02478
G1 X107.167 Y14.375 E.02144
G1 X106.518 Y14.375 E.02478
G1 X106.12 Y13.978 E.02146
G1 X105.471 Y13.978 E.02478
G1 X105.868 Y14.375 E.02144
G1 X105.219 Y14.375 E.02478
G1 X104.822 Y13.978 E.02144
G1 X104.172 Y13.978 E.02482
G1 X104.569 Y14.375 E.02144
G1 X103.92 Y14.375 E.02478
G1 X103.523 Y13.978 E.02144
G1 X102.874 Y13.978 E.02478
G1 X103.271 Y14.375 E.02144
G1 X102.621 Y14.375 E.02482
G1 X102.224 Y13.978 E.02144
G1 X101.575 Y13.978 E.02478
G1 X101.972 Y14.375 E.02144
G1 X101.323 Y14.375 E.02478
G1 X100.926 Y13.978 E.02144
G1 X100.276 Y13.978 E.02482
G1 X100.673 Y14.375 E.02144
G1 X100.024 Y14.375 E.02478
G1 X99.627 Y13.978 E.02144
G1 X98.978 Y13.978 E.02478
G1 X99.375 Y14.375 E.02144
G1 X99.174 Y14.375 E.00767
G1 X98.984 Y14.392 E.00728
G1 X98.806 Y14.456 E.00722
G1 X98.328 Y13.978 E.02581
G1 X97.679 Y13.978 E.02478
G1 X98.418 Y14.717 E.0399
G1 X98.259 Y14.867 E.00835
G1 X98.18 Y15.129 E.01045
G1 X97.222 Y14.17 E.05175
G1 X97.222 Y14.819 E.02478
G1 X98.085 Y15.682 E.0466
G1 X98.085 Y16.332 E.02482
G1 X97.222 Y15.469 E.0466
G1 X97.222 Y16.118 E.02478
G1 X98.085 Y16.981 E.0466
G1 X98.085 Y17.631 E.02482
G1 X97.222 Y16.767 E.04662
G1 X97.222 Y17.417 E.02482
G1 X98.085 Y18.28 E.0466
G1 X98.085 Y18.929 E.02478
G1 X97.21 Y18.055 E.04722
G1 X97.205 Y18.111 E.00215
G1 X97.1 Y18.424 E.0126
G1 X97.023 Y18.517 E.00461
G1 X98.085 Y19.579 E.05734
G1 X98.085 Y20.228 E.02478
G1 X96.695 Y18.838 E.07505
G1 X96.473 Y18.957 E.00962
G1 X96.313 Y18.996 E.00629
G1 X96.213 Y19.005 E.00383
G1 X98.085 Y20.877 E.10107
G1 X98.085 Y21.375 E.01901
G1 X97.933 Y21.375 E.0058
G1 X95.57 Y19.012 E.12759
G1 X94.921 Y19.012 E.02478
G1 X97.284 Y21.375 E.12759
G1 X96.635 Y21.375 E.02478
G1 X94.272 Y19.012 E.12759
G1 X93.622 Y19.012 E.02482
G1 X95.985 Y21.375 E.12759
G1 X95.336 Y21.375 E.02478
G1 X92.973 Y19.012 E.12759
G1 X92.324 Y19.012 E.02478
G1 X94.687 Y21.375 E.12759
G1 X94.037 Y21.375 E.02482
G1 X92.222 Y19.56 E.098
G1 X92.222 Y20.209 E.02478
G1 X93.388 Y21.375 E.06296
G1 X92.739 Y21.375 E.02478
G1 X92.016 Y20.652 E.03904
M204 P1000
; stop printing object battery arm.stl id:0 copy 0
M106 S127.5
;LAYER_CHANGE
;Z:0.35
;HEIGHT:0.15
;BEFORE_LAYER_CHANGE
G92 E0.0
;0.35


G1 E-.8 F2100
;WIPE_START
G1 F9600
G1 X92.697 Y21.333 E-.2
;WIPE_END
G1 Z.4 F720
;AFTER_LAYER_CHANGE
;0.35
; printing object battery arm.stl id:0 copy 0
G1 X98.793 Y15.575 F12000
G1 Z.35 F720
G1 E1 F1500
M204 P900
;TYPE:Perimeter
;WIDTH:0.449999
G1 F2700
G1 X98.76 Y15.678 E.00282
G1 X98.76 Y22.051 E.16605
G1 X91.546 Y22.051 E.18797
G1 X91.546 Y18.336 E.0968
G1 X95.919 Y18.336 E.11394
G1 X96.028 Y18.327 E.00285
G1 X96.326 Y18.187 E.00858
G1 X96.483 Y17.985 E.00667
G1 X96.546 Y17.71 E.00735
G1 X96.546 Y13.303 E.11483
G1 X159.26 Y13.303 E1.63406
G1 X159.26 Y17.676 E.11394
G1 X159.324 Y17.951 E.00736
G1 X159.481 Y18.153 E.00667
G1 X159.667 Y18.263 E.00563
G1 X159.887 Y18.303 E.00583
G1 X164.26 Y18.303 E.11394
G1 X164.26 Y22.017 E.09677
G1 X157.046 Y22.017 E.18797
G1 X157.046 Y15.678 E.16517
G1 X156.932 Y15.318 E.00984
G1 X156.725 Y15.13 E.00729
G1 X156.419 Y15.051 E.00823
G1 X99.387 Y15.051 E1.48601
G1 X99.082 Y15.13 E.00821
G1 X98.874 Y15.318 E.00731
G1 X98.811 Y15.518 E.00546
M204 P1000
G1 X99.178 Y15.678 F12000
M204 P700
;TYPE:External perimeter
G1 F1500
G1 X99.178 Y22.469 E.17694
G1 X91.128 Y22.469 E.20975
G1 X91.128 Y17.919 E.11855
G1 X95.919 Y17.919 E.12483
M73 P2 R37
G1 X96.055 Y17.869 E.00378
G1 X96.128 Y17.71 E.00456
G1 X96.128 Y12.885 E.12572
G1 X159.678 Y12.885 E1.65584
G1 X159.678 Y17.676 E.12483
G1 X159.752 Y17.835 E.00457
G1 X159.887 Y17.885 E.00375
G1 X164.678 Y17.885 E.12483
G1 X164.678 Y22.435 E.11855
G1 X156.628 Y22.435 E.20975
G1 X156.628 Y15.678 E.17606
G1 X156.59 Y15.558 E.00328
G1 X156.419 Y15.469 E.00502
G1 X99.387 Y15.469 E1.48601
G1 X99.351 Y15.472 E.00094
G1 X99.216 Y15.558 E.00417
G1 X99.196 Y15.62 E.0017
M204 P1000
G1 X98.795 Y15.792 F12000
G1 E-.8 F2100
;WIPE_START
G1 F9600
G1 X99.193 Y16.582 E-.2
;WIPE_END
G1 Z.55 F720
G1 X98.776 Y16.582 F12000
G1 X98.776 Y15.067
G1 X156.205 Y15.067
G1 X156.205 Y14.675
G1 Z.35 F720
G1 E1 F1500
M204 P1500
;TYPE:Solid infill
G1 F5400
G1 X99.389 Y14.675 E1.48038
G1 X98.862 Y14.829 E.01431
G1 X98.54 Y15.158 E.01199
G1 X98.384 Y15.684 E.0143
G1 X98.384 Y16.673 E.02577
G1 X98.237 Y16.673 E.00383
G1 X97.12 Y17.79 E.04116
G1 X96.832 Y18.107 E.01116
G1 X96.922 Y17.708 E.01066
G1 X96.922 Y13.679 E.10498
G1 X158.884 Y13.679 E1.61446
G1 X158.884 Y17.674 E.10409
G1 X158.97 Y18.069 E.01053
G1 X159.208 Y18.408 E.01079
G1 X159.571 Y18.624 E.01101
G1 X160.045 Y18.679 E.01243
G1 X157.422 Y21.302 E.09665
G1 X157.422 Y15.684 E.14638
G1 X157.412 Y15.621 E.00166
G1 X157.238 Y15.101 E.01429
G1 X156.858 Y14.783 E.01291
G1 X156.414 Y14.675 E.01191
M204 P1000
G1 E-.8 F2100
;WIPE_START
G1 F9600
G1 X156.858 Y14.783 E-.09496
G1 X157.238 Y15.101 E-.10297
G1 X157.241 Y15.11 E-.00207
;WIPE_END
G1 Z.55 F720
G1 X157.03 Y15.11 F12000
G1 X157.03 Y22.033
G1 X164.276 Y18.286
G1 X160.636 Y18.287
G1 X160.636 Y18.679
G1 Z.35 F720
G1 E1 F1500
M204 P1500
G1 F5400
G1 X157.674 Y21.641 E.10914
G1 X157.485 Y21.641 E.00492
;WIDTH:0.411095
G1 X157.296 Y21.641 E.00447
;WIDTH:0.37219
G1 X157.323 Y21.74 E.00218
M204 P1000
G1 X158.265 Y21.641 F12000
M204 P1500
;WIDTH:0.449999
G1 F5400
G1 X161.227 Y18.679 E.10914
G1 X161.818 Y18.679 E.0154
G1 X158.856 Y21.641 E.10914
G1 X159.446 Y21.641 E.01537
G1 X162.409 Y18.679 E.10916
G1 X163 Y18.679 E.0154
G1 X160.037 Y21.641 E.10916
G1 X160.628 Y21.641 E.0154
G1 X163.59 Y18.679 E.10914
G1 X163.796 Y18.65 E.00542
;WIDTH:0.411095
G1 X164.001 Y18.622 E.00489
;WIDTH:0.37219
G1 X163.96 Y18.633 E.0009
G1 X163.941 Y18.562 E.00156
G1 X164.012 Y18.581 E.00156
;WIDTH:0.449999
G1 X163.884 Y18.976 E.01082
G1 X161.219 Y21.641 E.0982
G1 X161.81 Y21.641 E.0154
G1 X163.884 Y19.566 E.07644
G1 X163.884 Y20.157 E.0154
G1 X162.401 Y21.641 E.05466
